;FLAVOR:Marlin
;TIME:881
;Filament used:0.251236m
;Layer height: 0.15
;MINX:95.147
;MINY:95.058
;MINZ:0.15
;MAXX:124.875
;MAXY:124.918
;MAXZ:9.9
                              
;Creality Print GCode Generated by CXEngine:NO_MAGE_VERSION_GIT_HEAD_BRANCH
;CXEngine Release Time:2022-09-30 09:53:04
;Gcode Generated Time:2026-06-17 14:11:44
;----------Machine Config--------------
;Machine Name:Creality Ender-3
;Machine Height:250
;Machine Width:220
;Machine Depth:220
;Material name:PLA
;Number of Extruders:1
;ExtruderParams[0] Nozzle Diameter1000
;----------Profile Config---------------
;Engine Version:275f99b
;Engine Release Time:2022-09-30 09:42:18
;Layer Height:0.15
;Wall Thickness:0.8
;Top/Bottom Thickness:1
;Out Wall Line Width:0.4
;Inner Wall Line Width:0.4
;Inital Layer Height:150
;Wall Line Count:2
;Infill Line Distance:4
;Infill Pattern:grid
;Infill Sparse Density:20
;Infill Wipe Distance:0
;Print Temperature:200
;Bed Temperature:60
;Support Enable:true
;Support Density:30
;Support Angle:30
;Adhesion Type:brim
;machine is belt:false
;machine belt offset:10
;machine belt offset Y:0
;Raft Base Line Spacing:1.6
;Wait Heatup Sync:true
;----------Shell Config----------------
;Outer Wall Wipe Distance:200
;Outer Inset First:false
;Infill Before Walls:false
;Infill Overlap:0.16
;Fill Gaps Between Walls:everywhere
;Minimum Infill Area:1
;Top Surface Skin Layer:0
;Top Layers:4
;Z Seam Alignment:sharpest_corner
;Seam Corner Preference:z_seam_corner_inner
;Z Seam X:110
;Z Seam Y:110
;Horizontal Expansion:0
;Top/Bottom Pattern:zigzag
;Ironing Pattern:zigzag
;Vase Model:false
;----------Support Config----------------
;Support Type:everywhere
;Support Pattern:zigzag
;Support Infill Layer Thickness:0.15
;Minimum Support Area:5
;Enable Support Roof:false
;Support Roof Thickness:0.8
;Support Roof Pattern:lines
;Connect Support Lines:0
;Connect Support ZigZags:1
;Minimum Support X/Y Distance:0.2
;Support Line Distance:1.33
; ---------PrintSpeed & Travel----------
;Enable Print Cool:true
;Avoid Printed Parts Traveling:true
;Enable Retraction:true
;Retraction Distance:8
;Retraction Speed:100
;Retraction Prime Speed:100
;Maximum Retraction Count:100
;Minimum Extrusion Distance Window:1
;Z Hop When Retracted:false
;Z Hop Height:0.2
;Retract Before Outer Wall:true
;Print Speed:50
;Infill Speed:50

;Prime Tower Speed:50
;Travel Speed:120
;Initial Layer Speed:25
;Skirt/Brim Speed:25
;Combing Mode:infill
; --------SpecialModel&Mesh Fixes--------
;Union Overlapping Volum:true
;Remove All Holes:false
;Maximum Travel Resolution:0.6
;Maximum Deviation:0.05
;Maximum Model Angle:0.872665
;IS Mold Print:false
;Make Overhang Printable:false
;Enable Coasting:false
;Coasting Volumes:0.06
;Coasting Speed:0.9
;Raft AirGap:0.25
;Layer0 ZOverLap:0.13
;---------------------End of Head--------------------------
M140 S60
M105
M104 S200
M105
M109 S200
M105
M190 S60
M82 ;absolute extrusion mode
M220 S100 ;Reset Feedrate
M221 S100 ;Reset Flowrate

G28 ;Home

G92 E0 ;Reset Extruder
G1 Z2.0 F3000 ;Move Z Axis up
G1 X10.1 Y20 Z0.28 F5000.0 ;Move to start position
G1 X10.1 Y145.0 Z0.28 F1500.0 E15 ;Draw the first line
G1 X10.4 Y145.0 Z0.28 F5000.0 ;Move to side a little
G1 X10.4 Y20 Z0.28 F1500.0 E30 ;Draw the second line
G92 E0  ;Reset Extruder
G1 E-1.0000 F1800 ;Retract a bit
G1 Z2.0 F3000 ;Move Z Axis up
G1 E0.0000 F1800 

G92 E0
G92 E0
G1 F6000 E-8

;LAYER_COUNT:66

;LAYER:0
M107
G0 F3600 X98.581 Y100.391 Z0.15
G0 X99.654 Y99.448
;TYPE:SKIRT
G1 F6000 E0
G1 F1500 X99.91 Y99.14 E0.01099
G1 X100.474 Y98.587 E0.03266
G1 X101.091 Y98.095 E0.05432
G1 X101.755 Y97.667 E0.07599
G1 X102.671 Y97.23 E0.10384
G1 X102.995 Y96.966 E0.11531
G1 X103.654 Y96.532 E0.13696
G1 X104.354 Y96.167 E0.15862
G1 X105.088 Y95.874 E0.18031
G1 X105.847 Y95.657 E0.20197
G1 X106.625 Y95.518 E0.22366
G1 X107.119 Y95.48 E0.23725
G1 X107.82 Y95.273 E0.25731
G1 X108.596 Y95.126 E0.27898
G1 X109.383 Y95.058 E0.30066
G1 X110.172 Y95.07 E0.32231
G1 X110.957 Y95.162 E0.344
G1 X111.6 Y95.305 E0.36207
G1 X111.984 Y95.307 E0.37261
G1 X112.769 Y95.391 E0.39427
G1 X113.541 Y95.555 E0.41593
G1 X114.293 Y95.796 E0.4376
G1 X115.017 Y96.111 E0.45926
G1 X115.238 Y96.239 E0.46627
G1 X115.638 Y96.321 E0.47747
G1 X116.392 Y96.557 E0.49915
G1 X117.118 Y96.867 E0.52081
G1 X117.808 Y97.25 E0.54247
G1 X118.457 Y97.7 E0.56414
G1 X119.057 Y98.214 E0.58582
G1 X119.602 Y98.786 E0.6075
G1 X119.835 Y99.078 E0.61775
G1 X120.515 Y99.752 E0.64402
G1 X121.006 Y100.371 E0.6657
G1 X121.266 Y100.778 E0.67895
G1 X122.292 Y101.77 E0.71811
G1 X122.788 Y102.385 E0.73979
G1 X123.219 Y103.046 E0.76144
G1 X123.581 Y103.748 E0.78312
G1 X123.87 Y104.483 E0.80479
G1 X124.083 Y105.243 E0.82644
G1 X124.159 Y105.68 E0.83862
G1 X124.432 Y106.343 E0.85829
G1 X124.658 Y107.1 E0.87997
G1 X124.806 Y107.875 E0.90162
G1 X124.875 Y108.662 E0.9233
G1 X124.864 Y109.452 E0.94498
G1 X124.773 Y110.236 E0.96663
G1 X124.319 Y112.138 E1.02029
G1 X124.254 Y113.458 E1.05655
G1 X124.176 Y114.243 E1.0782
G1 X124.018 Y115.017 E1.09988
G1 X123.782 Y115.771 E1.12155
G1 X123.472 Y116.497 E1.14322
G1 X123.09 Y117.188 E1.16488
G1 X122.64 Y117.837 E1.18655
G1 X122.294 Y118.24 E1.20113
G1 X121.956 Y118.865 E1.22062
G1 X121.511 Y119.517 E1.24228
G1 X121.003 Y120.122 E1.26396
G1 X120.436 Y120.671 E1.28562
G1 X119.816 Y121.161 E1.3073
G1 X119.399 Y121.427 E1.32087
G1 X118.902 Y121.919 E1.34006
G1 X118.287 Y122.415 E1.36174
G1 X117.372 Y122.987 E1.39135
G1 X115.959 Y123.695 E1.43472
G1 X115.136 Y123.976 E1.45858
G1 X114.83 Y124.137 E1.46807
G1 X114.097 Y124.431 E1.48974
G1 X112.969 Y124.728 E1.52175
G1 X111.844 Y124.894 E1.55295
G1 X111.055 Y124.918 E1.57461
G1 X110.267 Y124.862 E1.59629
G1 X109.298 Y124.681 E1.62334
G1 X107.859 Y124.316 E1.66407
G1 X106.543 Y124.251 E1.70023
G1 X105.757 Y124.172 E1.7219
G1 X104.984 Y124.014 E1.74355
G1 X104.23 Y123.779 E1.76522
G1 X103.504 Y123.468 E1.7869
G1 X102.813 Y123.086 E1.80856
G1 X102.164 Y122.636 E1.83023
G1 X101.764 Y122.293 E1.84469
G1 X101.123 Y121.945 E1.8647
G1 X100.472 Y121.499 E1.88636
G1 X99.868 Y120.989 E1.90805
G1 X99.32 Y120.421 E1.92971
G1 X98.831 Y119.801 E1.95137
G1 X98.267 Y118.861 E1.98145
G1 X98.084 Y118.651 E1.9891
G1 X97.629 Y118.005 E2.01078
G1 X97.241 Y117.317 E2.03245
G1 X96.716 Y116.24 E2.06533
G1 X96.337 Y115.665 E2.08422
G1 X95.971 Y114.965 E2.1059
G1 X95.677 Y114.232 E2.12757
G1 X95.459 Y113.473 E2.14924
G1 X95.319 Y112.696 E2.1709
G1 X95.259 Y111.909 E2.19256
G1 X95.285 Y110.905 E2.22012
G1 X95.176 Y110.123 E2.24178
G1 X95.147 Y109.333 E2.26348
G1 X95.197 Y108.545 E2.28514
G1 X95.328 Y107.766 E2.30682
G1 X95.484 Y107.136 E2.32463
G1 X95.568 Y106.351 E2.34629
G1 X95.73 Y105.578 E2.36796
G1 X95.97 Y104.826 E2.38962
G1 X96.285 Y104.102 E2.41129
G1 X96.671 Y103.413 E2.43296
G1 X96.969 Y102.989 E2.44718
G1 X97.244 Y102.337 E2.46659
G1 X97.623 Y101.644 E2.48827
G1 X98.07 Y100.993 E2.50994
G1 X98.581 Y100.391 E2.5316
G1 X99.15 Y99.843 E2.55328
G1 X99.654 Y99.448 E2.57085
G0 F3600 X99.922 Y99.75
G1 F1500 X100.231 Y99.382 E2.58404
G1 X100.784 Y98.847 E2.60515
G1 X101.39 Y98.373 E2.62626
G1 X102.042 Y97.964 E2.64738
G1 X102.887 Y97.57 E2.67296
G1 X103.247 Y97.277 E2.6857
G1 X103.892 Y96.857 E2.70682
G1 X104.576 Y96.506 E2.72792
G1 X105.293 Y96.227 E2.74903
G1 X106.035 Y96.025 E2.77013
G1 X106.794 Y95.901 E2.79123
G1 X107.215 Y95.868 E2.80282
G1 X107.953 Y95.652 E2.82392
G1 X108.71 Y95.514 E2.84503
G1 X109.477 Y95.455 E2.86614
G1 X110.246 Y95.476 E2.88725
G1 X111.008 Y95.577 E2.90834
G1 X111.532 Y95.703 E2.92313
G1 X112.001 Y95.708 E2.936
G1 X112.765 Y95.796 E2.9571
G1 X113.516 Y95.962 E2.97821
G1 X114.246 Y96.206 E2.99933
G1 X115.11 Y96.621 E3.02563
G1 X115.557 Y96.713 E3.03815
G1 X116.291 Y96.946 E3.05928
G1 X116.996 Y97.253 E3.08038
G1 X117.665 Y97.632 E3.10148
G1 X118.291 Y98.079 E3.12259
G1 X118.868 Y98.587 E3.14368
G1 X119.556 Y99.367 E3.17222
G1 X120.267 Y100.076 E3.19977
G1 X120.737 Y100.685 E3.22088
G1 X120.954 Y101.035 E3.23218
G1 X122.007 Y102.051 E3.27233
G1 X122.488 Y102.652 E3.29345
G1 X122.903 Y103.299 E3.31454
G1 X123.249 Y103.986 E3.33565
G1 X123.522 Y104.705 E3.35675
G1 X123.719 Y105.449 E3.37787
G1 X123.778 Y105.802 E3.38769
G1 X124.069 Y106.514 E3.4088
G1 X124.283 Y107.253 E3.42991
G1 X124.42 Y108.009 E3.45099
G1 X124.478 Y108.776 E3.4721
G1 X124.456 Y109.545 E3.49321
G1 X124.354 Y110.308 E3.51433
G1 X123.922 Y112.076 E3.56427
G1 X123.855 Y113.438 E3.60169
G1 X123.777 Y114.203 E3.62279
G1 X123.62 Y114.956 E3.6439
G1 X123.386 Y115.689 E3.66501
G1 X123.077 Y116.393 E3.68611
G1 X122.697 Y117.061 E3.70719
G1 X122.249 Y117.687 E3.72832
G1 X121.963 Y118.016 E3.74028
G1 X121.594 Y118.691 E3.76139
G1 X121.156 Y119.323 E3.78249
G1 X120.655 Y119.907 E3.8036
G1 X120.096 Y120.436 E3.82472
G1 X119.486 Y120.903 E3.8458
G1 X119.154 Y121.108 E3.85651
G1 X118.605 Y121.647 E3.87762
G1 X118.003 Y122.126 E3.89873
G1 X117.183 Y122.634 E3.92519
G1 X116.485 Y123.006 E3.9469
G1 X115.789 Y123.332 E3.96799
G1 X114.989 Y123.601 E3.99115
G1 X114.626 Y123.79 E4.00238
G1 X113.91 Y124.073 E4.0235
G1 X112.555 Y124.398 E4.06174
G1 X111.792 Y124.497 E4.08285
G1 X111.023 Y124.518 E4.10396
G1 X110.256 Y124.458 E4.12507
G1 X109.396 Y124.293 E4.1491
G1 X107.922 Y123.92 E4.19082
G1 X106.563 Y123.852 E4.22815
G1 X105.798 Y123.774 E4.24925
G1 X105.045 Y123.617 E4.27036
G1 X104.312 Y123.382 E4.29148
G1 X103.608 Y123.073 E4.31258
G1 X102.939 Y122.693 E4.33369
G1 X102.314 Y122.245 E4.35479
G1 X101.972 Y121.953 E4.36713
G1 X101.298 Y121.583 E4.38823
G1 X100.666 Y121.144 E4.40934
G1 X100.083 Y120.642 E4.43045
G1 X99.556 Y120.082 E4.45155
G1 X99.089 Y119.471 E4.47266
G1 X98.594 Y118.627 E4.4995
G1 X98.362 Y118.357 E4.50927
G1 X97.924 Y117.724 E4.53039
G1 X97.555 Y117.049 E4.5515
G1 X97.387 Y116.647 E4.56346
G1 X97.07 Y116.051 E4.58198
G1 X96.671 Y115.445 E4.60189
G1 X96.317 Y114.762 E4.623
G1 X96.036 Y114.046 E4.64411
G1 X95.831 Y113.304 E4.66523
G1 X95.704 Y112.546 E4.68632
G1 X95.656 Y111.778 E4.70743
G1 X95.7 Y110.918 E4.73106
G1 X95.571 Y110.048 E4.7552
G1 X95.548 Y109.279 E4.77631
G1 X95.604 Y108.512 E4.79741
G1 X95.74 Y107.755 E4.81851
G1 X95.883 Y107.26 E4.83265
G1 X95.969 Y106.374 E4.85708
G1 X96.132 Y105.622 E4.87819
G1 X96.373 Y104.892 E4.89928
G1 X96.688 Y104.19 E4.9204
G1 X97.074 Y103.525 E4.9415
G1 X97.319 Y103.182 E4.95306
G1 X97.621 Y102.475 E4.97416
G1 X97.995 Y101.803 E4.99526
G1 X98.437 Y101.173 E5.01638
G1 X98.941 Y100.592 E5.03748
G1 X99.503 Y100.067 E5.05859
G1 X99.922 Y99.75 E5.073
G0 F3600 X100.171 Y100.075
G1 F1500 X100.552 Y99.625 E5.08918
G1 X101.094 Y99.109 E5.10972
G1 X101.687 Y98.654 E5.13023
G1 X102.326 Y98.265 E5.15075
G1 X103.1 Y97.912 E5.1741
G1 X103.5 Y97.588 E5.18822
G1 X104.128 Y97.182 E5.20874
G1 X104.796 Y96.846 E5.22926
G1 X105.496 Y96.582 E5.24979
G1 X106.22 Y96.395 E5.2703
G1 X106.961 Y96.286 E5.29086
G1 X107.265 Y96.28 E5.2992
G1 X108.085 Y96.032 E5.32271
G1 X108.822 Y95.903 E5.34324
G1 X109.569 Y95.854 E5.36378
G1 X110.316 Y95.884 E5.38429
G1 X111.056 Y95.994 E5.40482
G1 X111.438 Y96.101 E5.41571
G1 X112.017 Y96.11 E5.43159
G1 X112.76 Y96.201 E5.45213
G1 X113.488 Y96.37 E5.47264
G1 X114.195 Y96.616 E5.49318
G1 X114.981 Y97.003 E5.51722
G1 X115.476 Y97.106 E5.5311
G1 X116.188 Y97.335 E5.55162
G1 X116.872 Y97.639 E5.57216
G1 X117.519 Y98.014 E5.59268
G1 X118.123 Y98.456 E5.61322
G1 X118.675 Y98.96 E5.63373
G1 X119.249 Y99.632 E5.65798
G1 X119.506 Y99.853 E5.66728
G1 X120.017 Y100.4 E5.68782
G1 X120.467 Y100.997 E5.70833
G1 X120.644 Y101.293 E5.71779
G1 X121.722 Y102.332 E5.75888
G1 X122.187 Y102.919 E5.77943
G1 X122.586 Y103.551 E5.79993
G1 X122.916 Y104.223 E5.82048
G1 X123.172 Y104.926 E5.84101
G1 X123.351 Y105.652 E5.86152
G1 X123.381 Y105.908 E5.8686
G1 X123.704 Y106.684 E5.89166
G1 X123.908 Y107.404 E5.91219
G1 X124.034 Y108.142 E5.93274
G1 X124.08 Y108.888 E5.95325
G1 X124.046 Y109.636 E5.97379
G1 X123.867 Y110.66 E6.00232
G1 X123.524 Y112.017 E6.04072
G1 X123.455 Y113.418 E6.07921
G1 X123.379 Y114.162 E6.09973
G1 X123.223 Y114.894 E6.12027
G1 X122.99 Y115.605 E6.1408
G1 X122.682 Y116.287 E6.16134
G1 X122.304 Y116.932 E6.18185
G1 X121.858 Y117.533 E6.20239
G1 X121.633 Y117.768 E6.21131
G1 X121.231 Y118.515 E6.23459
G1 X120.801 Y119.127 E6.25511
G1 X120.309 Y119.69 E6.27563
G1 X119.758 Y120.197 E6.29618
G1 X119.157 Y120.642 E6.3167
G1 X118.901 Y120.787 E6.32477
G1 X118.309 Y121.375 E6.34766
G1 X117.721 Y121.836 E6.36817
G1 X116.995 Y122.281 E6.39153
G1 X116.297 Y122.653 E6.41323
G1 X115.619 Y122.97 E6.43377
G1 X114.843 Y123.226 E6.45619
G1 X114.422 Y123.443 E6.46919
G1 X113.724 Y123.713 E6.48973
G1 X112.482 Y124.004 E6.52473
G1 X111.74 Y124.1 E6.54526
G1 X110.992 Y124.116 E6.56579
G1 X110.247 Y124.053 E6.5863
G1 X109.494 Y123.905 E6.60736
G1 X107.98 Y123.521 E6.65022
G1 X106.583 Y123.452 E6.6886
G1 X105.839 Y123.375 E6.70912
G1 X105.107 Y123.219 E6.72966
G1 X104.396 Y122.986 E6.75019
G1 X103.714 Y122.679 E6.77071
G1 X103.069 Y122.3 E6.79124
G1 X102.468 Y121.855 E6.81176
G1 X102.232 Y121.628 E6.82075
G1 X101.474 Y121.221 E6.84435
G1 X100.863 Y120.79 E6.86487
G1 X100.301 Y120.296 E6.8854
G1 X99.795 Y119.745 E6.90593
G1 X99.351 Y119.143 E6.92646
G1 X98.948 Y118.427 E6.949
G1 X98.641 Y118.063 E6.96207
G1 X98.222 Y117.444 E6.98258
G1 X97.872 Y116.783 E7.0031
G1 X97.744 Y116.463 E7.01256
G1 X97.416 Y115.85 E7.03163
G1 X97.006 Y115.225 E7.05215
G1 X96.665 Y114.559 E7.07268
G1 X96.396 Y113.861 E7.0932
G1 X96.204 Y113.138 E7.11373
G1 X96.091 Y112.398 E7.13427
G1 X96.056 Y111.651 E7.15479
G1 X96.114 Y110.927 E7.17472
G1 X95.966 Y109.974 E7.20118
G1 X95.949 Y109.226 E7.22171
G1 X96.012 Y108.481 E7.24223
G1 X96.154 Y107.746 E7.26277
G1 X96.284 Y107.325 E7.27486
G1 X96.37 Y106.398 E7.30041
G1 X96.535 Y105.668 E7.32094
G1 X96.776 Y104.96 E7.34146
G1 X97.091 Y104.282 E7.36198
G1 X97.477 Y103.641 E7.38251
G1 X97.674 Y103.392 E7.39122
G1 X97.999 Y102.614 E7.41436
G1 X98.367 Y101.963 E7.43488
G1 X98.803 Y101.355 E7.45541
G1 X99.301 Y100.797 E7.47593
G1 X99.856 Y100.295 E7.49646
G1 X100.171 Y100.075 E7.50701
G0 F3600 X100.455 Y100.357
G1 F1500 X100.872 Y99.869 E7.52462
G1 X101.402 Y99.372 E7.54456
G1 X101.983 Y98.937 E7.56447
G1 X102.609 Y98.568 E7.58441
G1 X103.309 Y98.257 E7.60543
G1 X103.752 Y97.9 E7.62104
G1 X104.364 Y97.509 E7.64097
G1 X105.015 Y97.187 E7.6609
G1 X105.697 Y96.939 E7.68081
G1 X106.403 Y96.767 E7.70075
G1 X107.124 Y96.674 E7.7207
G1 X107.517 Y96.61 E7.73162
G1 X108.216 Y96.412 E7.75156
G1 X108.933 Y96.293 E7.7715
G1 X109.658 Y96.253 E7.79143
G1 X110.383 Y96.293 E7.81135
G1 X111.1 Y96.412 E7.83129
G1 X111.401 Y96.5 E7.8399
G1 X112.032 Y96.512 E7.85722
G1 X112.752 Y96.606 E7.87714
G1 X113.458 Y96.778 E7.89708
G1 X114.14 Y97.027 E7.917
G1 X114.844 Y97.383 E7.93865
G1 X115.395 Y97.498 E7.95409
G1 X116.085 Y97.724 E7.97402
G1 X116.746 Y98.024 E7.99393
G1 X117.371 Y98.396 E8.01389
G1 X117.95 Y98.833 E8.0338
G1 X118.478 Y99.332 E8.05373
G1 X118.975 Y99.923 E8.07492
G1 X119.274 Y100.186 E8.08585
G1 X119.764 Y100.722 E8.10577
G1 X120.193 Y101.308 E8.1257
G1 X120.33 Y101.548 E8.13328
G1 X120.928 Y102.094 E8.1555
G1 X121.436 Y102.613 E8.17543
G1 X121.885 Y103.184 E8.19536
G1 X122.267 Y103.802 E8.2153
G1 X122.58 Y104.457 E8.23522
G1 X122.819 Y105.143 E8.25515
G1 X123.003 Y106.049 E8.28052
G1 X123.339 Y106.854 E8.30446
G1 X123.531 Y107.554 E8.32437
G1 X123.645 Y108.271 E8.34429
G1 X123.68 Y108.997 E8.36424
G1 X123.634 Y109.722 E8.38417
G1 X123.479 Y110.562 E8.40761
G1 X123.127 Y111.955 E8.44704
G1 X123.056 Y113.398 E8.48668
G1 X122.98 Y114.121 E8.50663
G1 X122.825 Y114.83 E8.52654
G1 X122.594 Y115.519 E8.54648
G1 X122.288 Y116.177 E8.56639
G1 X121.911 Y116.799 E8.58635
G1 X121.469 Y117.375 E8.60627
G1 X121.285 Y117.564 E8.61351
G1 X120.87 Y118.339 E8.63763
G1 X120.448 Y118.93 E8.65756
G1 X119.963 Y119.471 E8.6775
G1 X119.422 Y119.955 E8.69742
G1 X118.626 Y120.491 E8.72375
G1 X118.014 Y121.101 E8.74746
G1 X117.439 Y121.545 E8.76739
G1 X116.807 Y121.928 E8.78767
G1 X116.109 Y122.3 E8.80937
G1 X115.45 Y122.606 E8.82931
G1 X114.698 Y122.852 E8.85102
G1 X114.22 Y123.095 E8.86573
G1 X113.54 Y123.352 E8.88568
G1 X112.41 Y123.611 E8.91749
G1 X111.689 Y123.703 E8.93744
