;FLAVOR:Marlin
;TIME:20132
;Filament used:17.2522m
;Layer height: 0.2
;MINX:55.2
;MINY:40.2
;MINZ:0.2
;MAXX:164.8
;MAXY:179.8
;MAXZ:17.2
                                     
;Creality Print GCode Generated by CXEngine:NO_MAGE_VERSION_GIT_HEAD_BRANCH
;CXEngine Release Time:2022-09-30 09:53:04
;Gcode Generated Time:2026-02-11 12:49:43
;----------Machine Config--------------
;Machine Name:Creality Ender-3
;Machine Height:250
;Machine Width:220
;Machine Depth:220
;Material name:PLA
;Number of Extruders:1
;ExtruderParams[0] Nozzle Diameter1000
;----------Profile Config---------------
;Engine Version:275f99b
;Engine Release Time:2022-09-30 09:42:18
;Layer Height:0.2
;Wall Thickness:0.8
;Top/Bottom Thickness:1
;Out Wall Line Width:0.4
;Inner Wall Line Width:0.4
;Inital Layer Height:200
;Wall Line Count:2
;Infill Line Distance:5.33
;Infill Pattern:grid
;Infill Sparse Density:15
;Infill Wipe Distance:0
;Print Temperature:200
;Bed Temperature:60
;Support Enable:true
;Support Density:30
;Support Angle:60
;Adhesion Type:brim
;machine is belt:false
;machine belt offset:10
;machine belt offset Y:0
;Raft Base Line Spacing:1.6
;Wait Heatup Sync:true
;----------Shell Config----------------
;Outer Wall Wipe Distance:200
;Outer Inset First:false
;Infill Before Walls:false
;Infill Overlap:0.16
;Fill Gaps Between Walls:everywhere
;Minimum Infill Area:1
;Top Surface Skin Layer:0
;Top Layers:3
;Z Seam Alignment:sharpest_corner
;Seam Corner Preference:z_seam_corner_inner
;Z Seam X:110
;Z Seam Y:110
;Horizontal Expansion:0
;Top/Bottom Pattern:zigzag
;Ironing Pattern:zigzag
;Vase Model:false
;----------Support Config----------------
;Support Type:everywhere
;Support Pattern:zigzag
;Support Infill Layer Thickness:0.2
;Minimum Support Area:5
;Enable Support Roof:false
;Support Roof Thickness:0.8
;Support Roof Pattern:lines
;Connect Support Lines:0
;Connect Support ZigZags:1
;Minimum Support X/Y Distance:0.2
;Support Line Distance:1.33
; ---------PrintSpeed & Travel----------
;Enable Print Cool:true
;Avoid Printed Parts Traveling:true
;Enable Retraction:true
;Retraction Distance:8
;Retraction Speed:100
;Retraction Prime Speed:100
;Maximum Retraction Count:100
;Minimum Extrusion Distance Window:1
;Z Hop When Retracted:false
;Z Hop Height:0.2
;Retract Before Outer Wall:true
;Print Speed:50
;Infill Speed:50

;Prime Tower Speed:50
;Travel Speed:120
;Initial Layer Speed:25
;Skirt/Brim Speed:25
;Combing Mode:infill
; --------SpecialModel&Mesh Fixes--------
;Union Overlapping Volum:true
;Remove All Holes:false
;Maximum Travel Resolution:0.6
;Maximum Deviation:0.05
;Maximum Model Angle:0.872665
;IS Mold Print:false
;Make Overhang Printable:false
;Enable Coasting:false
;Coasting Volumes:0.06
;Coasting Speed:0.9
;Raft AirGap:0.25
;Layer0 ZOverLap:0.13
;---------------------End of Head--------------------------
M140 S60
M105
M104 S200
M105
M109 S200
M105
M190 S60
M82 ;absolute extrusion mode
M220 S100 ;Reset Feedrate
M221 S100 ;Reset Flowrate

G28 ;Home

G92 E0 ;Reset Extruder
G1 Z2.0 F3000 ;Move Z Axis up
G1 X10.1 Y20 Z0.28 F5000.0 ;Move to start position
G1 X10.1 Y145.0 Z0.28 F1500.0 E15 ;Draw the first line
G1 X10.4 Y145.0 Z0.28 F5000.0 ;Move to side a little
G1 X10.4 Y20 Z0.28 F1500.0 E30 ;Draw the second line
G92 E0  ;Reset Extruder
G1 E-1.0000 F1800 ;Retract a bit
G1 Z2.0 F3000 ;Move Z Axis up
G1 E0.0000 F1800 

G92 E0
G92 E0
G1 F6000 E-8

;LAYER_COUNT:86

;LAYER:0
M107
G0 F3600 X58.597 Y45.663 Z0.2
G0 X58.4 Y50.117
;TYPE:SKIRT
G1 F6000 E0
G1 F1500 X58.44 Y49.392 E0.02657
G1 X58.559 Y48.675 E0.05316
G1 X58.757 Y47.976 E0.07974
G1 X59.03 Y47.303 E0.10631
G1 X59.375 Y46.664 E0.13288
G1 X59.789 Y46.067 E0.15946
G1 X60.45 Y45.333 E0.19559
G1 X60.991 Y44.849 E0.22215
G1 X61.582 Y44.426 E0.24874
G1 X62.216 Y44.072 E0.27531
G1 X62.885 Y43.789 E0.30188
G1 X63.581 Y43.581 E0.32846
G1 X64.296 Y43.451 E0.35505
G1 X65.117 Y43.4 E0.38514
G1 X88.167 Y43.4 E1.22846
G1 X88.699 Y42.909 E1.25494
G1 X89.284 Y42.479 E1.2815
G1 X89.913 Y42.115 E1.30809
G1 X90.578 Y41.822 E1.33468
G1 X91.271 Y41.604 E1.36126
G1 X91.983 Y41.464 E1.38781
G1 X92.9 Y41.4 E1.42144
G1 X127.1 Y41.4 E2.67268
G1 X127.825 Y41.44 E2.69925
G1 X128.542 Y41.559 E2.72584
G1 X129.241 Y41.757 E2.75242
G1 X129.914 Y42.03 E2.77899
G1 X130.553 Y42.375 E2.80556
G1 X131.15 Y42.789 E2.83214
G1 X131.823 Y43.4 E2.8654
G1 X154.883 Y43.4 E3.70907
G1 X155.608 Y43.44 E3.73564
G1 X156.325 Y43.559 E3.76223
G1 X157.024 Y43.757 E3.78881
G1 X157.697 Y44.03 E3.81538
G1 X158.336 Y44.375 E3.84195
G1 X158.933 Y44.789 E3.86853
G1 X159.667 Y45.45 E3.90467
G1 X160.151 Y45.991 E3.93123
G1 X160.574 Y46.582 E3.95782
G1 X160.928 Y47.216 E3.98438
G1 X161.211 Y47.885 E4.01096
G1 X161.419 Y48.581 E4.03753
G1 X161.549 Y49.296 E4.06412
G1 X161.6 Y50.117 E4.09422
G1 X161.6 Y73.167 E4.93753
G1 X162.091 Y73.699 E4.96402
G1 X162.521 Y74.284 E4.99058
G1 X162.885 Y74.913 E5.01717
G1 X163.178 Y75.578 E5.04375
G1 X163.396 Y76.271 E5.07033
G1 X163.536 Y76.983 E5.09688
G1 X163.6 Y77.9 E5.13051
G1 X163.6 Y142.1 E7.47934
G1 X163.56 Y142.825 E7.50591
G1 X163.441 Y143.542 E7.5325
G1 X163.243 Y144.241 E7.55908
G1 X162.97 Y144.914 E7.58565
G1 X162.625 Y145.553 E7.61222
G1 X162.211 Y146.15 E7.6388
G1 X161.6 Y146.823 E7.67205
G1 X161.6 Y169.883 E8.51573
G1 X161.56 Y170.608 E8.5423
G1 X161.441 Y171.325 E8.56889
G1 X161.243 Y172.024 E8.59547
G1 X160.97 Y172.697 E8.62204
G1 X160.625 Y173.336 E8.64861
G1 X160.211 Y173.933 E8.67519
G1 X159.55 Y174.667 E8.71132
G1 X159.009 Y175.151 E8.73788
G1 X158.418 Y175.574 E8.76447
G1 X157.784 Y175.928 E8.79104
G1 X157.115 Y176.211 E8.81762
G1 X156.419 Y176.419 E8.84419
G1 X155.704 Y176.549 E8.87078
G1 X154.883 Y176.6 E8.90088
G1 X131.833 Y176.6 E9.74419
G1 X131.301 Y177.091 E9.77067
G1 X130.716 Y177.521 E9.79724
G1 X130.087 Y177.885 E9.82382
G1 X129.422 Y178.178 E9.85041
G1 X128.729 Y178.396 E9.87699
G1 X128.017 Y178.536 E9.90354
G1 X127.1 Y178.6 E9.93717
G1 X92.9 Y178.6 E11.18842
G1 X92.175 Y178.56 E11.21498
G1 X91.458 Y178.441 E11.24157
G1 X90.759 Y178.243 E11.26815
G1 X90.086 Y177.97 E11.29472
G1 X89.447 Y177.625 E11.32129
G1 X88.85 Y177.211 E11.34787
G1 X88.177 Y176.6 E11.38113
G1 X65.117 Y176.6 E12.2248
G1 X64.392 Y176.56 E12.25137
G1 X63.675 Y176.441 E12.27796
G1 X62.976 Y176.243 E12.30454
G1 X62.303 Y175.97 E12.33111
G1 X61.664 Y175.625 E12.35768
G1 X61.067 Y175.211 E12.38426
G1 X60.333 Y174.55 E12.4204
G1 X59.849 Y174.009 E12.44696
G1 X59.426 Y173.418 E12.47355
G1 X59.072 Y172.784 E12.50011
G1 X58.789 Y172.115 E12.52669
G1 X58.581 Y171.419 E12.55327
G1 X58.451 Y170.704 E12.57985
G1 X58.4 Y169.883 E12.60995
G1 X58.4 Y146.833 E13.45326
G1 X57.909 Y146.301 E13.47975
G1 X57.479 Y145.716 E13.50631
G1 X57.115 Y145.087 E13.5329
G1 X56.822 Y144.422 E13.55948
G1 X56.604 Y143.729 E13.58606
G1 X56.464 Y143.017 E13.61261
G1 X56.4 Y142.1 E13.64624
G1 X56.4 Y77.9 E15.99507
G1 X56.44 Y77.175 E16.02164
G1 X56.559 Y76.458 E16.04823
G1 X56.757 Y75.759 E16.07481
G1 X57.03 Y75.086 E16.10138
G1 X57.375 Y74.447 E16.12795
G1 X57.789 Y73.85 E16.15453
G1 X58.4 Y73.177 E16.18778
G1 X58.4 Y50.117 E17.03146
G0 F3600 X58.8 Y50.117
G1 F1500 X58.84 Y49.414 E17.05722
G1 X58.959 Y48.72 E17.08298
G1 X59.157 Y48.045 E17.10872
G1 X59.429 Y47.396 E17.13447
G1 X59.774 Y46.782 E17.16023
G1 X60.185 Y46.211 E17.18597
G1 X60.733 Y45.616 E17.21557
G1 X61.258 Y45.147 E17.24132
G1 X61.833 Y44.741 E17.26708
G1 X62.451 Y44.403 E17.29285
G1 X63.102 Y44.136 E17.31859
G1 X63.78 Y43.946 E17.34435
G1 X64.475 Y43.833 E17.37011
G1 X65.117 Y43.8 E17.39363
G1 X88.352 Y43.8 E18.24371
G1 X88.559 Y43.573 E18.25495
G1 X89.089 Y43.109 E18.28072
G1 X89.668 Y42.709 E18.30647
G1 X90.289 Y42.377 E18.33223
G1 X90.943 Y42.117 E18.35798
G1 X91.623 Y41.933 E18.38375
G1 X92.319 Y41.827 E18.40951
G1 X92.9 Y41.8 E18.43079
G1 X127.1 Y41.8 E19.68204
G1 X127.803 Y41.84 E19.7078
G1 X128.497 Y41.959 E19.73356
G1 X129.172 Y42.157 E19.7593
G1 X129.821 Y42.429 E19.78504
G1 X130.435 Y42.774 E19.81081
G1 X131.006 Y43.185 E19.83655
G1 X131.65 Y43.8 E19.86913
G1 X154.883 Y43.8 E20.71913
G1 X155.586 Y43.84 E20.7449
G1 X156.28 Y43.959 E20.77066
G1 X156.955 Y44.157 E20.79639
G1 X157.604 Y44.429 E20.82214
G1 X158.218 Y44.774 E20.84791
G1 X158.789 Y45.185 E20.87365
G1 X159.384 Y45.733 E20.90324
G1 X159.853 Y46.258 E20.929
G1 X160.259 Y46.833 E20.95475
G1 X160.597 Y47.451 E20.98052
G1 X160.864 Y48.102 E21.00626
G1 X161.054 Y48.78 E21.03202
G1 X161.167 Y49.475 E21.05779
G1 X161.2 Y50.117 E21.0813
G1 X161.2 Y73.352 E21.93138
G1 X161.427 Y73.559 E21.94262
G1 X161.891 Y74.089 E21.9684
G1 X162.291 Y74.668 E21.99414
G1 X162.623 Y75.289 E22.01991
G1 X162.883 Y75.943 E22.04565
G1 X163.067 Y76.623 E22.07143
G1 X163.173 Y77.319 E22.09719
G1 X163.2 Y77.9 E22.11846
G1 X163.2 Y142.1 E24.4673
G1 X163.16 Y142.803 E24.49306
G1 X163.041 Y143.497 E24.51882
G1 X162.843 Y144.172 E24.54455
G1 X162.571 Y144.821 E24.5703
G1 X162.226 Y145.435 E24.59607
G1 X161.815 Y146.006 E24.62181
G1 X161.2 Y146.65 E24.65439
G1 X161.2 Y169.883 E25.50439
G1 X161.16 Y170.586 E25.53015
G1 X161.041 Y171.28 E25.55592
G1 X160.843 Y171.955 E25.58165
G1 X160.571 Y172.604 E25.6074
G1 X160.226 Y173.218 E25.63316
G1 X159.815 Y173.789 E25.6589
G1 X159.267 Y174.384 E25.6885
G1 X158.742 Y174.853 E25.71425
G1 X158.167 Y175.259 E25.74001
G1 X157.549 Y175.597 E25.76578
G1 X156.898 Y175.864 E25.79152
G1 X156.22 Y176.054 E25.81728
G1 X155.525 Y176.167 E25.84304
G1 X154.883 Y176.2 E25.86656
G1 X131.648 Y176.2 E26.71664
G1 X131.441 Y176.427 E26.72788
G1 X130.911 Y176.891 E26.75365
G1 X130.332 Y177.291 E26.7794
G1 X129.711 Y177.623 E26.80516
G1 X129.057 Y177.883 E26.83091
G1 X128.377 Y178.067 E26.85669
G1 X127.681 Y178.173 E26.88244
G1 X127.1 Y178.2 E26.90372
G1 X92.9 Y178.2 E28.15497
G1 X92.197 Y178.16 E28.18073
G1 X91.503 Y178.041 E28.20649
G1 X90.828 Y177.843 E28.23223
G1 X90.179 Y177.571 E28.25797
G1 X89.565 Y177.226 E28.28374
G1 X88.994 Y176.815 E28.30948
G1 X88.35 Y176.2 E28.34206
G1 X65.117 Y176.2 E29.19207
G1 X64.414 Y176.16 E29.21783
G1 X63.72 Y176.041 E29.24359
G1 X63.045 Y175.843 E29.26932
G1 X62.396 Y175.571 E29.29507
G1 X61.782 Y175.226 E29.32084
G1 X61.211 Y174.815 E29.34658
G1 X60.616 Y174.267 E29.37617
G1 X60.147 Y173.742 E29.40193
G1 X59.741 Y173.167 E29.42768
G1 X59.403 Y172.549 E29.45345
G1 X59.136 Y171.898 E29.47919
G1 X58.946 Y171.22 E29.50496
G1 X58.833 Y170.525 E29.53072
G1 X58.8 Y169.883 E29.55424
G1 X58.8 Y146.648 E30.40432
G1 X58.573 Y146.441 E30.41555
G1 X58.109 Y145.911 E30.44133
G1 X57.709 Y145.332 E30.46707
G1 X57.377 Y144.711 E30.49284
G1 X57.117 Y144.057 E30.51859
G1 X56.933 Y143.377 E30.54436
G1 X56.827 Y142.681 E30.57012
G1 X56.8 Y142.1 E30.5914
G1 X56.8 Y77.9 E32.94023
G1 X56.84 Y77.197 E32.96599
G1 X56.959 Y76.503 E32.99175
G1 X57.157 Y75.828 E33.01749
G1 X57.429 Y75.179 E33.04323
G1 X57.774 Y74.565 E33.069
G1 X58.185 Y73.994 E33.09474
G1 X58.8 Y73.35 E33.12732
G1 X58.8 Y50.117 E33.97732
G0 F3600 X59.2 Y50.117
G1 F1500 X59.24 Y49.437 E34.00225
G1 X59.359 Y48.767 E34.02714
G1 X59.556 Y48.115 E34.05206
G1 X59.828 Y47.491 E34.07697
G1 X60.172 Y46.903 E34.10189
G1 X60.582 Y46.359 E34.12681
G1 X61.016 Y45.899 E34.14995
G1 X61.525 Y45.446 E34.17488
G1 X62.083 Y45.057 E34.19976
G1 X62.683 Y44.735 E34.22468
G1 X63.317 Y44.486 E34.2496
G1 X63.976 Y44.313 E34.27453
G1 X64.65 Y44.219 E34.29942
G1 X88.522 Y44.2 E35.17281
G1 X88.953 Y43.751 E35.19558
G1 X89.478 Y43.317 E35.2205
G1 X90.05 Y42.948 E35.2454
G1 X90.662 Y42.649 E35.27032
G1 X91.304 Y42.424 E35.29521
G1 X91.969 Y42.275 E35.32015
G1 X92.9 Y42.2 E35.35432
G1 X127.1 Y42.2 E36.60556
G1 X127.78 Y42.24 E36.63049
G1 X128.45 Y42.359 E36.65538
G1 X129.102 Y42.556 E36.6803
G1 X129.726 Y42.828 E36.70521
G1 X130.314 Y43.172 E36.73013
G1 X130.858 Y43.582 E36.75505
G1 X131.471 Y44.2 E36.7869
G1 X154.883 Y44.2 E37.64345
G1 X155.563 Y44.24 E37.66838
G1 X156.233 Y44.359 E37.69327
G1 X156.885 Y44.556 E37.71819
G1 X157.509 Y44.828 E37.7431
G1 X158.097 Y45.172 E37.76802
G1 X158.641 Y45.582 E37.79294
G1 X159.101 Y46.016 E37.81608
G1 X159.554 Y46.525 E37.84101
G1 X159.943 Y47.083 E37.8659
G1 X160.265 Y47.683 E37.89081
G1 X160.514 Y48.317 E37.91573
G1 X160.687 Y48.976 E37.94066
G1 X160.781 Y49.65 E37.96555
G1 X160.8 Y73.522 E38.83894
G1 X161.249 Y73.953 E38.86171
G1 X161.683 Y74.478 E38.88663
G1 X162.052 Y75.05 E38.91153
G1 X162.351 Y75.662 E38.93645
G1 X162.576 Y76.304 E38.96134
G1 X162.725 Y76.969 E38.98628
G1 X162.8 Y77.9 E39.02045
G1 X162.8 Y142.1 E41.36928
G1 X162.76 Y142.78 E41.3942
G1 X162.641 Y143.45 E41.4191
G1 X162.444 Y144.102 E41.44402
G1 X162.172 Y144.726 E41.46892
G1 X161.828 Y145.314 E41.49384
G1 X161.418 Y145.858 E41.51877
G1 X160.8 Y146.471 E41.55061
G1 X160.8 Y169.883 E42.40717
G1 X160.76 Y170.563 E42.43209
G1 X160.641 Y171.233 E42.45699
G1 X160.444 Y171.885 E42.48191
G1 X160.172 Y172.509 E42.50681
G1 X159.828 Y173.097 E42.53173
G1 X159.418 Y173.641 E42.55666
G1 X158.984 Y174.101 E42.57979
G1 X158.475 Y174.554 E42.60472
G1 X157.917 Y174.943 E42.62961
G1 X157.317 Y175.265 E42.65452
G1 X156.683 Y175.514 E42.67944
G1 X156.024 Y175.687 E42.70437
G1 X155.35 Y175.781 E42.72927
G1 X131.478 Y175.8 E43.60265
G1 X131.047 Y176.249 E43.62542
G1 X130.522 Y176.683 E43.65035
G1 X129.95 Y177.052 E43.67525
G1 X129.338 Y177.351 E43.70017
G1 X128.696 Y177.576 E43.72506
G1 X128.031 Y177.725 E43.74999
G1 X127.1 Y177.8 E43.78416
G1 X92.9 Y177.8 E45.03541
G1 X92.22 Y177.76 E45.06033
G1 X91.55 Y177.641 E45.08523
G1 X90.898 Y177.444 E45.11015
G1 X90.274 Y177.172 E45.13505
G1 X89.686 Y176.828 E45.15998
G1 X89.142 Y176.418 E45.1849
G1 X88.529 Y175.8 E45.21674
G1 X65.117 Y175.8 E46.0733
G1 X64.437 Y175.76 E46.09822
G1 X63.767 Y175.641 E46.12312
G1 X63.115 Y175.444 E46.14804
G1 X62.491 Y175.172 E46.17294
G1 X61.903 Y174.828 E46.19786
G1 X61.359 Y174.418 E46.22279
G1 X60.899 Y173.984 E46.24593
G1 X60.446 Y173.475 E46.27085
G1 X60.057 Y172.917 E46.29574
G1 X59.735 Y172.317 E46.32065
G1 X59.486 Y171.683 E46.34557
G1 X59.313 Y171.024 E46.3705
G1 X59.219 Y170.35 E46.3954
G1 X59.2 Y146.478 E47.26878
G1 X58.751 Y146.047 E47.29155
G1 X58.317 Y145.522 E47.31648
G1 X57.948 Y144.95 E47.34138
G1 X57.649 Y144.338 E47.3663
G1 X57.424 Y143.696 E47.39119
G1 X57.275 Y143.031 E47.41612
G1 X57.2 Y142.1 E47.45029
G1 X57.2 Y77.9 E49.79913
G1 X57.24 Y77.22 E49.82405
G1 X57.359 Y76.55 E49.84894
G1 X57.556 Y75.898 E49.87386
G1 X57.828 Y75.274 E49.89877
G1 X58.172 Y74.686 E49.92369
G1 X58.582 Y74.142 E49.94861
G1 X59.2 Y73.529 E49.98046
G1 X59.2 Y50.117 E50.83701
G0 F3600 X59.6 Y50.117
G1 F1500 X59.64 Y49.461 E50.86106
G1 X59.759 Y48.815 E50.88509
G1 X59.956 Y48.188 E50.90914
G1 X60.228 Y47.59 E50.93317
G1 X60.57 Y47.029 E50.95721
G1 X61.299 Y46.182 E50.9981
G1 X61.791 Y45.746 E51.02215
G1 X62.332 Y45.374 E51.04617
G1 X62.914 Y45.07 E51.07019
G1 X63.529 Y44.839 E51.09423
G1 X64.168 Y44.684 E51.11828
G1 X65.117 Y44.6 E51.15314
G1 X88.717 Y44.6 E52.01657
G1 X88.878 Y44.397 E52.02605
G1 X89.345 Y43.935 E52.05009
G1 X89.865 Y43.534 E52.07411
G1 X90.429 Y43.198 E52.09813
G1 X91.031 Y42.934 E52.12218
G1 X91.66 Y42.744 E52.14622
G1 X92.307 Y42.633 E52.17024
G1 X92.9 Y42.6 E52.19196
G1 X127.1 Y42.6 E53.44321
G1 X127.756 Y42.64 E53.46726
G1 X128.402 Y42.759 E53.49129
G1 X129.029 Y42.956 E53.51533
G1 X129.627 Y43.228 E53.53937
G1 X130.188 Y43.57 E53.56341
G1 X130.703 Y43.978 E53.58745
G1 X131.285 Y44.6 E53.61861
G1 X154.883 Y44.6 E54.48197
G1 X155.539 Y44.64 E54.50602
G1 X156.185 Y44.759 E54.53005
G1 X156.812 Y44.956 E54.55409
G1 X157.41 Y45.228 E54.57813
G1 X157.971 Y45.57 E54.60217
G1 X158.818 Y46.299 E54.64305
G1 X159.254 Y46.791 E54.6671
G1 X159.626 Y47.332 E54.69112
G1 X159.93 Y47.914 E54.71515
G1 X160.161 Y48.529 E54.73918
G1 X160.316 Y49.168 E54.76324
G1 X160.4 Y50.117 E54.7981
G1 X160.4 Y73.717 E55.66153
G1 X160.603 Y73.878 E55.67101
G1 X161.065 Y74.345 E55.69504
G1 X161.466 Y74.865 E55.71907
G1 X161.802 Y75.429 E55.74308
G1 X162.066 Y76.031 E55.76713
G1 X162.256 Y76.66 E55.79117
G1 X162.367 Y77.307 E55.81519
G1 X162.4 Y77.9 E55.83692
G1 X162.4 Y142.1 E58.18575
G1 X162.36 Y142.756 E58.2098
G1 X162.241 Y143.402 E58.23383
G1 X162.044 Y144.029 E58.25787
G1 X161.772 Y144.627 E58.28191
G1 X161.43 Y145.188 E58.30595
