;FLAVOR:Marlin
;TIME:20266
;Filament used:17.4416m
;Layer height: 0.2
;MINX:55.2
;MINY:40.2
;MINZ:0.2
;MAXX:164.8
;MAXY:179.8
;MAXZ:17.2
                                     
;Creality Print GCode Generated by CXEngine:NO_MAGE_VERSION_GIT_HEAD_BRANCH
;CXEngine Release Time:2022-09-30 09:53:04
;Gcode Generated Time:2026-02-10 18:57:21
;----------Machine Config--------------
;Machine Name:Creality Ender-3
;Machine Height:250
;Machine Width:220
;Machine Depth:220
;Material name:PLA
;Number of Extruders:1
;ExtruderParams[0] Nozzle Diameter1000
;----------Profile Config---------------
;Engine Version:275f99b
;Engine Release Time:2022-09-30 09:42:18
;Layer Height:0.2
;Wall Thickness:0.8
;Top/Bottom Thickness:1
;Out Wall Line Width:0.4
;Inner Wall Line Width:0.4
;Inital Layer Height:200
;Wall Line Count:2
;Infill Line Distance:5.33
;Infill Pattern:grid
;Infill Sparse Density:15
;Infill Wipe Distance:0
;Print Temperature:200
;Bed Temperature:60
;Support Enable:true
;Support Density:30
;Support Angle:60
;Adhesion Type:brim
;machine is belt:false
;machine belt offset:10
;machine belt offset Y:0
;Raft Base Line Spacing:1.6
;Wait Heatup Sync:true
;----------Shell Config----------------
;Outer Wall Wipe Distance:200
;Outer Inset First:false
;Infill Before Walls:false
;Infill Overlap:0.16
;Fill Gaps Between Walls:everywhere
;Minimum Infill Area:1
;Top Surface Skin Layer:0
;Top Layers:3
;Z Seam Alignment:sharpest_corner
;Seam Corner Preference:z_seam_corner_inner
;Z Seam X:110
;Z Seam Y:110
;Horizontal Expansion:0
;Top/Bottom Pattern:zigzag
;Ironing Pattern:zigzag
;Vase Model:false
;----------Support Config----------------
;Support Type:everywhere
;Support Pattern:zigzag
;Support Infill Layer Thickness:0.2
;Minimum Support Area:5
;Enable Support Roof:false
;Support Roof Thickness:0.8
;Support Roof Pattern:lines
;Connect Support Lines:0
;Connect Support ZigZags:1
;Minimum Support X/Y Distance:0.2
;Support Line Distance:1.33
; ---------PrintSpeed & Travel----------
;Enable Print Cool:true
;Avoid Printed Parts Traveling:true
;Enable Retraction:true
;Retraction Distance:8
;Retraction Speed:100
;Retraction Prime Speed:100
;Maximum Retraction Count:100
;Minimum Extrusion Distance Window:1
;Z Hop When Retracted:false
;Z Hop Height:0.2
;Retract Before Outer Wall:true
;Print Speed:50
;Infill Speed:50

;Prime Tower Speed:50
;Travel Speed:120
;Initial Layer Speed:25
;Skirt/Brim Speed:25
;Combing Mode:infill
; --------SpecialModel&Mesh Fixes--------
;Union Overlapping Volum:true
;Remove All Holes:false
;Maximum Travel Resolution:0.6
;Maximum Deviation:0.05
;Maximum Model Angle:0.872665
;IS Mold Print:false
;Make Overhang Printable:false
;Enable Coasting:false
;Coasting Volumes:0.06
;Coasting Speed:0.9
;Raft AirGap:0.25
;Layer0 ZOverLap:0.13
;---------------------End of Head--------------------------
M140 S60
M105
M104 S200
M105
M109 S200
M105
M190 S60
M82 ;absolute extrusion mode
M220 S100 ;Reset Feedrate
M221 S100 ;Reset Flowrate

G28 ;Home

G92 E0 ;Reset Extruder
G1 Z2.0 F3000 ;Move Z Axis up
G1 X10.1 Y20 Z0.28 F5000.0 ;Move to start position
G1 X10.1 Y145.0 Z0.28 F1500.0 E15 ;Draw the first line
G1 X10.4 Y145.0 Z0.28 F5000.0 ;Move to side a little
G1 X10.4 Y20 Z0.28 F1500.0 E30 ;Draw the second line
G92 E0  ;Reset Extruder
G1 E-1.0000 F1800 ;Retract a bit
G1 Z2.0 F3000 ;Move Z Axis up
G1 E0.0000 F1800 

G92 E0
G92 E0
G1 F6000 E-8

;LAYER_COUNT:86

;LAYER:0
M107
G0 F3600 X58.597 Y45.663 Z0.2
;;retract;;
G0 X62.33 Y70.2
G0 X65.117 Y70.2
;TYPE:SKIRT
G1 F6000 E0
G1 F1500 X64.859 Y70.024 E0.01143
G1 X64.8 Y69.883 E0.01702
G1 X64.8 Y50.117 E0.74018
G1 X64.976 Y49.859 E0.75161
G1 X65.117 Y49.8 E0.7572
G1 X84.883 Y49.8 E1.48036
G1 X85.141 Y49.976 E1.49179
G1 X85.2 Y50.117 E1.49738
G1 X85.2 Y69.883 E2.22054
G1 X85.024 Y70.141 E2.23197
G1 X84.883 Y70.2 E2.23756
G1 X65.117 Y70.2 E2.96072
;;retract;;
G1 F6000 E-5.03928
G0 F3600 X62.33 Y70.2
G0 X62.342 Y67.242
G0 X64.334 Y49.841
G0 X64.841 Y49.334
G0 X82.242 Y47.342
G0 X137.758 Y47.342
G0 X137.758 Y49.342
G0 X134.859 Y70.024
G1 F6000 E2.96072
G1 F1500 X134.8 Y69.883 E2.96631
G1 X134.8 Y50.117 E3.68948
G1 X134.976 Y49.859 E3.7009
G1 X135.117 Y49.8 E3.70649
G1 X154.883 Y49.8 E4.42966
G1 X155.141 Y49.976 E4.44108
G1 X155.2 Y50.117 E4.44667
G1 X155.2 Y69.883 E5.16984
G1 X155.024 Y70.141 E5.18126
G1 X154.883 Y70.2 E5.18685
G1 X135.117 Y70.2 E5.91002
G1 X134.859 Y70.024 E5.92144
;;retract;;
G1 F6000 E-2.07856
G0 F3600 X137.758 Y49.342
G0 X155.159 Y49.334
G0 X155.666 Y49.841
G0 X157.658 Y67.242
G0 X157.658 Y152.758
G0 X155.666 Y170.159
G0 X155.159 Y170.666
G0 X137.758 Y172.658
G0 X134.8 Y172.67
G0 X134.8 Y169.883
G1 F6000 E5.92144
G1 F1500 X134.8 Y150.117 E6.6446
G1 X134.976 Y149.859 E6.65603
G1 X135.117 Y149.8 E6.66162
G1 X154.883 Y149.8 E7.38478
G1 X155.141 Y149.976 E7.39621
G1 X155.2 Y150.117 E7.4018
G1 X155.2 Y169.883 E8.12497
G1 X155.024 Y170.141 E8.13639
G1 X154.883 Y170.2 E8.14198
G1 X135.117 Y170.2 E8.86515
G1 X134.859 Y170.024 E8.87657
G1 X134.8 Y169.883 E8.88216
;;retract;;
G1 F6000 E0.88216
G0 F3600 X134.8 Y172.67
G0 X82.242 Y172.658
G0 X82.23 Y170.8
G0 X82.7 Y170.8
G1 F6000 E8.88216
G1 F1500 X82.739 Y170.681 E8.88675
G1 X82.9 Y170.6 E8.89334
G1 X85.132 Y170.6 E8.975
G1 X85.6 Y170.132 E8.99921
G1 X85.6 Y149.868 E9.7406
G1 X85.132 Y149.4 E9.76481
G1 X64.868 Y149.4 E10.50619
G1 X64.4 Y149.868 E10.53041
G1 X64.4 Y152.1 E10.61207
G1 X64.361 Y152.219 E10.61665
G1 X64.2 Y152.3 E10.62324
G1 X63 Y152.3 E10.66715
G1 X62.881 Y152.261 E10.67173
G1 X62.8 Y152.1 E10.67832
G1 X62.8 Y67.9 E13.75888
G1 X62.839 Y67.781 E13.76346
G1 X63 Y67.7 E13.77005
G1 X64.2 Y67.7 E13.81395
G1 X64.319 Y67.739 E13.81854
G1 X64.4 Y67.9 E13.82513
G1 X64.4 Y70.132 E13.90679
G1 X64.868 Y70.6 E13.931
G1 X85.132 Y70.6 E14.67239
G1 X85.6 Y70.132 E14.6966
G1 X85.6 Y49.868 E15.43798
G1 X85.132 Y49.4 E15.4622
G1 X82.9 Y49.4 E15.54386
G1 X82.781 Y49.361 E15.54844
G1 X82.7 Y49.2 E15.55503
G1 X82.7 Y48 E15.59894
G1 X82.739 Y47.881 E15.60352
G1 X82.9 Y47.8 E15.61011
G1 X137.1 Y47.8 E17.59308
G1 X137.219 Y47.839 E17.59766
G1 X137.3 Y48 E17.60426
G1 X137.3 Y49.2 E17.64816
G1 X137.261 Y49.319 E17.65274
G1 X137.1 Y49.4 E17.65934
G1 X134.868 Y49.4 E17.741
G1 X134.4 Y49.868 E17.76521
G1 X134.4 Y70.132 E18.50659
G1 X134.868 Y70.6 E18.53081
G1 X155.132 Y70.6 E19.27219
G1 X155.6 Y70.132 E19.2964
G1 X155.6 Y67.9 E19.37806
G1 X155.639 Y67.781 E19.38264
G1 X155.8 Y67.7 E19.38924
G1 X157 Y67.7 E19.43314
G1 X157.119 Y67.739 E19.43772
G1 X157.2 Y67.9 E19.44432
G1 X157.2 Y152.1 E22.52487
G1 X157.161 Y152.219 E22.52945
G1 X157 Y152.3 E22.53605
G1 X155.8 Y152.3 E22.57995
G1 X155.681 Y152.261 E22.58453
G1 X155.6 Y152.1 E22.59113
G1 X155.6 Y149.868 E22.67279
G1 X155.132 Y149.4 E22.697
G1 X134.868 Y149.4 E23.43838
G1 X134.4 Y149.868 E23.4626
G1 X134.4 Y170.132 E24.20398
G1 X134.868 Y170.6 E24.22819
G1 X137.1 Y170.6 E24.30985
G1 X137.219 Y170.639 E24.31444
G1 X137.3 Y170.8 E24.32103
G1 X137.3 Y172 E24.36493
G1 X137.261 Y172.119 E24.36951
G1 X137.1 Y172.2 E24.37611
G1 X82.9 Y172.2 E26.35908
G1 X82.781 Y172.161 E26.36366
G1 X82.7 Y172 E26.37025
G1 X82.7 Y170.8 E26.41416
;;retract;;
G1 F6000 E18.41416
G0 F3600 X82.23 Y170.8
G0 X65.117 Y170.67
G0 X65.117 Y170.6
G1 F6000 E26.41416
G1 F1500 X64.693 Y170.424 E26.43095
G1 X64.452 Y170.128 E26.44492
G1 X64.4 Y169.883 E26.45408
G1 X64.4 Y152.652 E27.0845
G1 X64.2 Y152.7 E27.09202
G1 X63 Y152.7 E27.13592
G1 X62.599 Y152.547 E27.15163
G1 X62.466 Y152.374 E27.15961
G1 X62.4 Y152.1 E27.16992
G1 X62.4 Y67.9 E30.25048
G1 X62.553 Y67.499 E30.26618
G1 X62.726 Y67.366 E30.27416
G1 X63 Y67.3 E30.28447
G1 X64.2 Y67.3 E30.32838
G1 X64.4 Y67.337 E30.33582
G1 X64.4 Y50.117 E30.96583
G1 X64.576 Y49.693 E30.98263
G1 X64.872 Y49.452 E30.99659
G1 X65.117 Y49.4 E31.00576
G1 X82.348 Y49.4 E31.63617
G1 X82.3 Y49.2 E31.6437
G1 X82.3 Y48 E31.6876
G1 X82.453 Y47.599 E31.7033
G1 X82.626 Y47.466 E31.71129
G1 X82.9 Y47.4 E31.7216
G1 X137.1 Y47.4 E33.70457
G1 X137.501 Y47.553 E33.72027
G1 X137.634 Y47.726 E33.72825
G1 X137.7 Y48 E33.73857
G1 X137.7 Y49.2 E33.78247
G1 X137.663 Y49.4 E33.78991
G1 X154.883 Y49.4 E34.41992
G1 X155.307 Y49.576 E34.43672
G1 X155.548 Y49.872 E34.45068
G1 X155.6 Y50.117 E34.45985
G1 X155.6 Y67.348 E35.09026
G1 X155.8 Y67.3 E35.09779
G1 X157 Y67.3 E35.14169
G1 X157.401 Y67.453 E35.15739
G1 X157.534 Y67.626 E35.16538
G1 X157.6 Y67.9 E35.17569
G1 X157.6 Y152.1 E38.25624
G1 X157.447 Y152.501 E38.27195
G1 X157.274 Y152.634 E38.27993
G1 X157 Y152.7 E38.29024
G1 X155.8 Y152.7 E38.33414
G1 X155.6 Y152.663 E38.34159
G1 X155.6 Y169.883 E38.9716
G1 X155.424 Y170.307 E38.9884
G1 X155.128 Y170.548 E39.00236
G1 X154.883 Y170.6 E39.01152
G1 X137.652 Y170.6 E39.64194
G1 X137.7 Y170.8 E39.64946
G1 X137.7 Y172 E39.69337
G1 X137.547 Y172.401 E39.70907
G1 X137.374 Y172.534 E39.71705
G1 X137.1 Y172.6 E39.72737
G1 X82.9 Y172.6 E41.71034
G1 X82.499 Y172.447 E41.72604
G1 X82.366 Y172.274 E41.73402
G1 X82.3 Y172 E41.74433
G1 X82.3 Y170.8 E41.78824
G1 X82.337 Y170.6 E41.79568
G1 X65.117 Y170.6 E42.42569
G0 F3600 X65.117 Y170.2
G1 F1500 X64.859 Y170.024 E42.43712
G1 X64.8 Y169.883 E42.44271
G1 X64.8 Y150.117 E43.16587
G1 X64.976 Y149.859 E43.1773
G1 X65.117 Y149.8 E43.18289
G1 X84.883 Y149.8 E43.90605
G1 X85.141 Y149.976 E43.91748
G1 X85.2 Y150.117 E43.92307
G1 X85.2 Y169.883 E44.64623
G1 X85.024 Y170.141 E44.65766
G1 X84.883 Y170.2 E44.66325
G1 X65.117 Y170.2 E45.38641
G0 F3600 X65.117 Y171
G1 F1500 X64.838 Y170.96 E45.39672
G1 X64.581 Y170.844 E45.40704
G1 X64.293 Y170.59 E45.42109
G1 X64.124 Y170.364 E45.43141
G1 X64.024 Y170.1 E45.44174
G1 X64 Y169.883 E45.44973
G1 X64 Y153.1 E46.06376
G1 X63 Y153.1 E46.10034
G1 X62.721 Y153.06 E46.11065
G1 X62.464 Y152.944 E46.12097
G1 X62.249 Y152.761 E46.1313
G1 X62.095 Y152.525 E46.14161
G1 X62.012 Y152.255 E46.15194
G1 X62 Y67.9 E49.23817
G1 X62.04 Y67.621 E49.24848
G1 X62.156 Y67.364 E49.2588
G1 X62.339 Y67.149 E49.26913
G1 X62.575 Y66.995 E49.27944
G1 X62.845 Y66.912 E49.28977
G1 X64 Y66.9 E49.33203
G1 X64 Y50.117 E49.94606
G1 X64.04 Y49.838 E49.95637
G1 X64.156 Y49.581 E49.96668
G1 X64.41 Y49.293 E49.98073
G1 X64.636 Y49.124 E49.99106
G1 X64.9 Y49.024 E50.00139
G1 X65.117 Y49 E50.00937
G1 X81.9 Y49 E50.6234
G1 X81.9 Y48 E50.65999
G1 X81.94 Y47.721 E50.6703
G1 X82.056 Y47.464 E50.68061
G1 X82.239 Y47.249 E50.69094
G1 X82.475 Y47.095 E50.70125
G1 X82.745 Y47.012 E50.71159
G1 X137.1 Y47 E52.70023
G1 X137.379 Y47.04 E52.71054
G1 X137.636 Y47.156 E52.72086
G1 X137.851 Y47.339 E52.73119
G1 X138.005 Y47.575 E52.7415
G1 X138.088 Y47.845 E52.75183
G1 X138.1 Y49 E52.79409
G1 X154.883 Y49 E53.40811
G1 X155.162 Y49.04 E53.41843
G1 X155.419 Y49.156 E53.42874
G1 X155.707 Y49.41 E53.44279
G1 X155.876 Y49.636 E53.45312
G1 X155.976 Y49.9 E53.46344
G1 X156 Y50.117 E53.47143
G1 X156 Y66.9 E54.08546
G1 X157 Y66.9 E54.12204
G1 X157.279 Y66.94 E54.13236
G1 X157.536 Y67.056 E54.14267
G1 X157.751 Y67.239 E54.153
G1 X157.905 Y67.475 E54.16331
G1 X157.988 Y67.745 E54.17365
G1 X158 Y152.1 E57.25987
G1 X157.96 Y152.379 E57.27018
G1 X157.844 Y152.636 E57.2805
G1 X157.661 Y152.851 E57.29083
G1 X157.425 Y153.005 E57.30114
G1 X157.155 Y153.088 E57.31147
G1 X156 Y153.1 E57.35373
G1 X156 Y169.883 E57.96776
G1 X155.96 Y170.162 E57.97807
G1 X155.844 Y170.419 E57.98839
G1 X155.59 Y170.707 E58.00243
G1 X155.364 Y170.876 E58.01276
G1 X155.1 Y170.976 E58.02309
G1 X154.883 Y171 E58.03108
G1 X138.1 Y171 E58.6451
G1 X138.1 Y172 E58.68169
G1 X138.06 Y172.279 E58.692
G1 X137.944 Y172.536 E58.70232
G1 X137.761 Y172.751 E58.71264
G1 X137.525 Y172.905 E58.72295
G1 X137.255 Y172.988 E58.73329
G1 X82.9 Y173 E60.72193
G1 X82.621 Y172.96 E60.73224
G1 X82.364 Y172.844 E60.74256
G1 X82.149 Y172.661 E60.75289
G1 X81.995 Y172.425 E60.7632
G1 X81.912 Y172.155 E60.77353
G1 X81.9 Y171 E60.81579
G1 X65.117 Y171 E61.42982
G0 F3600 X65.117 Y171.4
G1 F1500 X64.785 Y171.36 E61.44205
G1 X64.473 Y171.243 E61.45424
G1 X64.01 Y170.873 E61.47593
G1 X63.804 Y170.61 E61.48815
G1 X63.665 Y170.306 E61.50038
G1 X63.6 Y169.883 E61.51604
G1 X63.6 Y153.5 E62.11543
G1 X63 Y153.5 E62.13738
G1 X62.668 Y153.46 E62.14961
G1 X62.356 Y153.343 E62.1618
G1 X62.079 Y153.155 E62.17405
G1 X61.856 Y152.907 E62.18625
G1 X61.697 Y152.613 E62.19848
G1 X61.613 Y152.289 E62.21073
G1 X61.6 Y67.9 E65.2982
G1 X61.64 Y67.568 E65.31043
G1 X61.757 Y67.256 E65.32262
G1 X61.945 Y66.979 E65.33487
G1 X62.193 Y66.756 E65.34707
G1 X62.487 Y66.597 E65.3593
G1 X62.811 Y66.513 E65.37155
G1 X63.6 Y66.5 E65.40042
G1 X63.6 Y50.117 E65.99981
G1 X63.64 Y49.785 E66.01204
G1 X63.757 Y49.473 E66.02423
G1 X64.127 Y49.01 E66.04592
G1 X64.39 Y48.804 E66.05814
G1 X64.694 Y48.665 E66.07037
G1 X65.117 Y48.6 E66.08603
G1 X81.5 Y48.6 E66.68542
G1 X81.5 Y48 E66.70737
G1 X81.54 Y47.668 E66.7196
G1 X81.657 Y47.356 E66.7318
G1 X81.845 Y47.079 E66.74404
G1 X82.093 Y46.856 E66.75625
G1 X82.387 Y46.697 E66.76847
G1 X82.711 Y46.613 E66.78072
G1 X137.1 Y46.6 E68.7706
G1 X137.432 Y46.64 E68.78284
G1 X137.744 Y46.757 E68.79503
G1 X138.021 Y46.945 E68.80728
G1 X138.244 Y47.193 E68.81948
G1 X138.403 Y47.487 E68.83171
G1 X138.487 Y47.811 E68.84395
G1 X138.5 Y48.6 E68.87282
G1 X154.883 Y48.6 E69.47222
G1 X155.215 Y48.64 E69.48445
G1 X155.527 Y48.757 E69.49664
G1 X155.99 Y49.127 E69.51832
G1 X156.196 Y49.39 E69.53055
G1 X156.335 Y49.694 E69.54278
G1 X156.4 Y50.117 E69.55843
G1 X156.4 Y66.5 E70.15783
G1 X157 Y66.5 E70.17978
G1 X157.332 Y66.54 E70.19201
G1 X157.644 Y66.657 E70.2042
G1 X157.921 Y66.845 E70.21645
G1 X158.144 Y67.093 E70.22865
G1 X158.303 Y67.387 E70.24088
G1 X158.387 Y67.711 E70.25313
G1 X158.4 Y152.1 E73.3406
G1 X158.36 Y152.432 E73.35283
G1 X158.243 Y152.744 E73.36502
G1 X158.055 Y153.021 E73.37727
G1 X157.807 Y153.244 E73.38947
G1 X157.513 Y153.403 E73.4017
G1 X157.189 Y153.487 E73.41395
G1 X156.4 Y153.5 E73.44282
G1 X156.4 Y169.883 E74.04221
G1 X156.36 Y170.215 E74.05444
G1 X156.243 Y170.527 E74.06663
G1 X155.873 Y170.99 E74.08832
G1 X155.61 Y171.196 E74.10054
G1 X155.306 Y171.335 E74.11277
G1 X154.883 Y171.4 E74.12843
G1 X138.5 Y171.4 E74.72782
G1 X138.5 Y172 E74.74977
G1 X138.46 Y172.332 E74.762
G1 X138.343 Y172.644 E74.77419
G1 X138.155 Y172.921 E74.78644
G1 X137.907 Y173.144 E74.79864
G1 X137.613 Y173.303 E74.81087
G1 X137.289 Y173.387 E74.82312
G1 X82.9 Y173.4 E76.813
G1 X82.568 Y173.36 E76.82524
G1 X82.256 Y173.243 E76.83743
G1 X81.979 Y173.055 E76.84968
G1 X81.756 Y172.807 E76.86188
G1 X81.597 Y172.513 E76.87411
G1 X81.513 Y172.189 E76.88635
G1 X81.5 Y171.4 E76.91522
G1 X65.117 Y171.4 E77.51461
G0 F3600 X65.117 Y171.8
G1 F1500 X64.74 Y171.76 E77.52849
G1 X64.38 Y171.642 E77.54235
G1 X64.053 Y171.452 E77.55618
G1 X63.727 Y171.156 E77.57229
G1 X63.489 Y170.861 E77.58616
G1 X63.318 Y170.523 E77.60002
G1 X63.221 Y170.157 E77.61387
G1 X63.2 Y169.883 E77.62393
G1 X63.2 Y153.9 E78.20868
G1 X62.623 Y153.86 E78.22984
G1 X62.263 Y153.742 E78.2437
G1 X61.936 Y153.552 E78.25754
G1 X61.655 Y153.297 E78.27142
G1 X61.435 Y152.988 E78.2853
G1 X61.283 Y152.641 E78.29916
G1 X61.2 Y152.1 E78.31918
G1 X61.2 Y67.9 E81.39974
G1 X61.24 Y67.523 E81.41361
G1 X61.358 Y67.163 E81.42747
G1 X61.548 Y66.836 E81.44131
G1 X61.803 Y66.555 E81.45519
G1 X62.112 Y66.335 E81.46907
G1 X62.459 Y66.183 E81.48293
G1 X63 Y66.1 E81.50295
G1 X63.2 Y66.1 E81.51027
G1 X63.2 Y50.117 E82.09503
G1 X63.24 Y49.74 E82.1089
G1 X63.358 Y49.38 E82.12276
G1 X63.548 Y49.053 E82.13659
G1 X63.844 Y48.727 E82.1527
G1 X64.139 Y48.489 E82.16657
G1 X64.477 Y48.318 E82.18043
G1 X64.843 Y48.221 E82.19428
G1 X65.117 Y48.2 E82.20434
G1 X81.1 Y48.2 E82.78909
G1 X81.14 Y47.623 E82.81025
G1 X81.258 Y47.263 E82.82411
G1 X81.448 Y46.936 E82.83795
G1 X81.703 Y46.655 E82.85183
G1 X82.012 Y46.435 E82.86571
G1 X82.359 Y46.283 E82.87957
G1 X82.9 Y46.2 E82.8996
G1 X137.1 Y46.2 E84.88256
G1 X137.477 Y46.24 E84.89643
G1 X137.837 Y46.358 E84.9103
G1 X138.164 Y46.548 E84.92413
G1 X138.445 Y46.803 E84.93801
G1 X138.665 Y47.112 E84.95189
G1 X138.817 Y47.459 E84.96575
G1 X138.9 Y48 E84.98578
G1 X138.9 Y48.2 E84.99309
G1 X154.883 Y48.2 E85.57785
G1 X155.26 Y48.24 E85.59172
G1 X155.62 Y48.358 E85.60558
G1 X155.947 Y48.548 E85.61942
G1 X156.273 Y48.844 E85.63553
