;FLAVOR:Marlin
;TIME:16101
;Filament used:10.1588m
;Layer height: 0.15
;MINX:64.33
;MINY:49.342
;MINZ:0.15
;MAXX:155.67
;MAXY:170.67
;MAXZ:12
                                 
;Creality Print GCode Generated by CXEngine:NO_MAGE_VERSION_GIT_HEAD_BRANCH
;CXEngine Release Time:2022-09-30 09:53:04
;Gcode Generated Time:2026-02-10 16:14:30
;----------Machine Config--------------
;Machine Name:Creality Ender-3
;Machine Height:250
;Machine Width:220
;Machine Depth:220
;Material name:PLA
;Number of Extruders:1
;ExtruderParams[0] Nozzle Diameter1000
;----------Profile Config---------------
;Engine Version:275f99b
;Engine Release Time:2022-09-30 09:42:18
;Layer Height:0.15
;Wall Thickness:0.8
;Top/Bottom Thickness:1
;Out Wall Line Width:0.4
;Inner Wall Line Width:0.4
;Inital Layer Height:150
;Wall Line Count:2
;Infill Line Distance:4
;Infill Pattern:grid
;Infill Sparse Density:20
;Infill Wipe Distance:0
;Print Temperature:200
;Bed Temperature:60
;Support Enable:false
;Support Density:30
;Support Angle:60
;Adhesion Type:none
;machine is belt:false
;machine belt offset:10
;machine belt offset Y:0
;Raft Base Line Spacing:1.6
;Wait Heatup Sync:true
;----------Shell Config----------------
;Outer Wall Wipe Distance:200
;Outer Inset First:false
;Infill Before Walls:false
;Infill Overlap:0.16
;Fill Gaps Between Walls:everywhere
;Minimum Infill Area:1
;Top Surface Skin Layer:0
;Top Layers:4
;Z Seam Alignment:sharpest_corner
;Seam Corner Preference:z_seam_corner_inner
;Z Seam X:110
;Z Seam Y:110
;Horizontal Expansion:0
;Top/Bottom Pattern:zigzag
;Ironing Pattern:zigzag
;Vase Model:false
;----------Support Config----------------
;Support Type:everywhere
;Support Pattern:zigzag
;Support Infill Layer Thickness:0.15
;Minimum Support Area:5
;Enable Support Roof:false
;Support Roof Thickness:0.8
;Support Roof Pattern:lines
;Connect Support Lines:0
;Connect Support ZigZags:1
;Minimum Support X/Y Distance:0.2
;Support Line Distance:1.33
; ---------PrintSpeed & Travel----------
;Enable Print Cool:true
;Avoid Printed Parts Traveling:true
;Enable Retraction:true
;Retraction Distance:8
;Retraction Speed:100
;Retraction Prime Speed:100
;Maximum Retraction Count:100
;Minimum Extrusion Distance Window:1
;Z Hop When Retracted:false
;Z Hop Height:0.2
;Retract Before Outer Wall:true
;Print Speed:50
;Infill Speed:50

;Prime Tower Speed:50
;Travel Speed:120
;Initial Layer Speed:25
;Skirt/Brim Speed:25
;Combing Mode:infill
; --------SpecialModel&Mesh Fixes--------
;Union Overlapping Volum:true
;Remove All Holes:false
;Maximum Travel Resolution:0.6
;Maximum Deviation:0.05
;Maximum Model Angle:0.872665
;IS Mold Print:false
;Make Overhang Printable:false
;Enable Coasting:false
;Coasting Volumes:0.06
;Coasting Speed:0.9
;Raft AirGap:0.25
;Layer0 ZOverLap:0.13
;---------------------End of Head--------------------------
M140 S60
M105
M104 S200
M105
M109 S200
M105
M190 S60
M82 ;absolute extrusion mode
M220 S100 ;Reset Feedrate
M221 S100 ;Reset Flowrate

G28 ;Home

G92 E0 ;Reset Extruder
G1 Z2.0 F3000 ;Move Z Axis up
G1 X10.1 Y20 Z0.28 F5000.0 ;Move to start position
G1 X10.1 Y145.0 Z0.28 F1500.0 E15 ;Draw the first line
G1 X10.4 Y145.0 Z0.28 F5000.0 ;Move to side a little
G1 X10.4 Y20 Z0.28 F1500.0 E30 ;Draw the second line
G92 E0  ;Reset Extruder
G1 E-1.0000 F1800 ;Retract a bit
G1 Z2.0 F3000 ;Move Z Axis up
G1 E0.0000 F1800 

G92 E0
G92 E0
G1 F6000 E-8

;LAYER_COUNT:80

;LAYER:0
M107
;MESH:
G0 F3600 X154.4 Y169.4 Z0.15
;TYPE:WALL-INNER
G1 F6000 E0
G1 F1500 X65.6 Y169.4 E2.43664
G1 X65.6 Y50.6 E5.69646
G1 X154.4 Y50.6 E8.1331
G1 X154.4 Y169.4 E11.39293
G0 F3600 X154.8 Y169.8
;TYPE:WALL-OUTER
G1 F1500 X65.2 Y169.8 E13.85152
G1 X65.2 Y50.2 E17.13329
G1 X154.8 Y50.2 E19.59188
G1 X154.8 Y169.8 E22.87366
G0 F3600 X154.6 Y169.8
G0 X154.36 Y169.36
;;retract;;
G1 F6000 E14.87366
G0 F3600 X154.36 Y170.67
G0 X65.84 Y170.67
G0 X65.84 Y169.159
;TYPE:SKIN
G1 F6000 E22.87366
G1 F1500 X66.204 Y169.159 E22.88365
G1 X65.839 Y168.794 E22.89781
G1 X65.839 Y168.228 E22.91334
G1 X66.769 Y169.159 E22.94945
G1 X67.335 Y169.159 E22.96498
G1 X65.839 Y167.662 E23.02306
G1 X65.839 Y167.097 E23.03856
G1 X67.901 Y169.159 E23.11858
G1 X68.467 Y169.159 E23.13411
G1 X65.839 Y166.531 E23.23609
G1 X65.839 Y165.965 E23.25162
G1 X69.032 Y169.159 E23.37554
G1 X69.598 Y169.159 E23.39107
G1 X65.839 Y165.4 E23.53694
G1 X65.839 Y164.834 E23.55248
G1 X70.164 Y169.159 E23.72031
G1 X70.729 Y169.159 E23.73581
G1 X65.839 Y164.268 E23.92559
G1 X65.839 Y163.702 E23.94112
G1 X71.295 Y169.159 E24.15286
G1 X71.861 Y169.159 E24.16839
G1 X65.839 Y163.137 E24.40208
G1 X65.839 Y162.571 E24.41761
G1 X72.426 Y169.159 E24.67324
G1 X72.992 Y169.159 E24.68877
G1 X65.839 Y162.005 E24.96637
G1 X65.839 Y161.44 E24.98187
G1 X73.558 Y169.159 E25.28141
G1 X74.123 Y169.159 E25.29691
G1 X65.839 Y160.874 E25.6184
G1 X65.839 Y160.308 E25.63393
G1 X74.689 Y169.159 E25.97738
G1 X75.255 Y169.159 E25.99291
G1 X65.839 Y159.743 E26.3583
G1 X65.839 Y159.177 E26.37383
G1 X75.82 Y169.159 E26.76117
G1 X76.386 Y169.159 E26.7767
G1 X65.839 Y158.611 E27.186
G1 X65.839 Y158.046 E27.2015
G1 X76.952 Y169.159 E27.63275
G1 X77.517 Y169.159 E27.64825
G1 X65.839 Y157.48 E28.10144
G1 X65.839 Y156.914 E28.11697
G1 X78.083 Y169.159 E28.59213
G1 X78.649 Y169.159 E28.60766
G1 X65.839 Y156.349 E29.10475
G1 X65.839 Y155.783 E29.12029
G1 X79.215 Y169.159 E29.63935
G1 X79.78 Y169.159 E29.65485
G1 X65.839 Y155.217 E30.19586
G1 X65.839 Y154.652 E30.21136
G1 X80.346 Y169.159 E30.77431
G1 X80.912 Y169.159 E30.78984
G1 X65.839 Y154.086 E31.37476
G1 X65.839 Y153.52 E31.39029
G1 X81.477 Y169.159 E31.99715
G1 X82.043 Y169.159 E32.01268
G1 X65.839 Y152.954 E32.6415
G1 X65.839 Y152.389 E32.657
G1 X82.609 Y169.159 E33.30777
G1 X83.174 Y169.159 E33.32328
G1 X65.839 Y151.823 E33.99599
G1 X65.839 Y151.257 E34.01152
G1 X83.74 Y169.159 E34.7062
G1 X84.306 Y169.159 E34.72173
G1 X65.839 Y150.692 E35.43835
G1 X65.839 Y150.126 E35.45388
G1 X84.871 Y169.159 E36.19244
G1 X85.437 Y169.159 E36.20797
G1 X65.839 Y149.56 E36.9685
G1 X65.839 Y148.995 E36.98401
G1 X86.003 Y169.159 E37.76648
G1 X86.568 Y169.159 E37.78198
G1 X65.839 Y148.429 E38.5864
G1 X65.839 Y147.863 E38.60193
G1 X87.134 Y169.159 E39.42831
G1 X87.7 Y169.159 E39.44384
G1 X65.839 Y147.298 E40.29217
G1 X65.839 Y146.732 E40.3077
G1 X88.266 Y169.159 E41.17799
G1 X88.831 Y169.159 E41.1935
G1 X65.839 Y146.166 E42.08573
G1 X65.839 Y145.601 E42.10123
G1 X89.397 Y169.159 E43.01541
G1 X89.963 Y169.159 E43.03094
G1 X65.839 Y145.035 E43.96709
G1 X65.839 Y144.469 E43.98262
G1 X90.528 Y169.159 E44.94071
G1 X91.094 Y169.159 E44.95624
G1 X65.839 Y143.904 E45.93627
G1 X65.839 Y143.338 E45.9518
G1 X91.66 Y169.159 E46.9538
G1 X92.225 Y169.159 E46.9693
G1 X65.839 Y142.772 E47.99324
G1 X65.839 Y142.206 E48.00877
G1 X92.791 Y169.159 E49.05467
G1 X93.357 Y169.159 E49.07021
G1 X65.839 Y141.641 E50.13805
G1 X65.839 Y141.075 E50.15359
G1 X93.922 Y169.159 E51.24338
G1 X94.488 Y169.159 E51.25891
G1 X65.839 Y140.509 E52.37067
G1 X65.839 Y139.944 E52.38617
G1 X95.054 Y169.159 E53.51987
G1 X95.619 Y169.159 E53.53538
G1 X65.839 Y139.378 E54.69102
G1 X65.839 Y138.812 E54.70655
G1 X96.185 Y169.159 E55.88416
G1 X96.751 Y169.159 E55.89969
G1 X65.839 Y138.247 E57.09925
G1 X65.839 Y137.681 E57.11478
G1 X97.316 Y169.159 E58.33628
G1 X97.882 Y169.159 E58.35181
G1 X65.839 Y137.115 E59.59527
G1 X65.839 Y136.55 E59.61078
G1 X98.448 Y169.159 E60.87618
G1 X99.014 Y169.159 E60.89171
G1 X65.839 Y135.984 E62.17909
G1 X65.839 Y135.418 E62.19462
G1 X99.579 Y169.159 E63.50393
G1 X100.145 Y169.159 E63.51946
G1 X65.839 Y134.853 E64.85072
G1 X65.839 Y134.287 E64.86625
G1 X100.711 Y169.159 E66.21948
G1 X101.276 Y169.159 E66.23498
G1 X65.839 Y133.721 E67.61015
G1 X65.839 Y133.155 E67.62568
G1 X101.842 Y169.159 E69.02282
G1 X102.408 Y169.159 E69.03835
G1 X65.839 Y132.59 E70.45742
G1 X65.839 Y132.024 E70.47295
G1 X102.973 Y169.159 E71.91398
G1 X103.539 Y169.159 E71.92951
G1 X65.839 Y131.458 E73.39249
G1 X65.839 Y130.893 E73.408
G1 X104.105 Y169.159 E74.89293
G1 X104.67 Y169.159 E74.90843
G1 X65.839 Y130.327 E76.4153
G1 X65.839 Y129.761 E76.43084
G1 X105.236 Y169.159 E77.95967
G1 X105.802 Y169.159 E77.9752
G1 X65.839 Y129.196 E79.52599
G1 X65.839 Y128.63 E79.54152
G1 X106.367 Y169.159 E81.11425
G1 X106.933 Y169.159 E81.12978
G1 X65.839 Y128.064 E82.72447
G1 X65.839 Y127.499 E82.73997
G1 X107.499 Y169.159 E84.35661
G1 X108.065 Y169.159 E84.37214
G1 X65.839 Y126.933 E86.01074
G1 X65.839 Y126.367 E86.02627
G1 X108.63 Y169.159 E87.68681
G1 X109.196 Y169.159 E87.70234
G1 X65.839 Y125.802 E89.38483
G1 X65.839 Y125.236 E89.40036
G1 X109.762 Y169.159 E91.10482
G1 X110.327 Y169.159 E91.12032
G1 X65.839 Y124.67 E92.84672
G1 X65.839 Y124.105 E92.86222
G1 X110.893 Y169.159 E94.61056
G1 X111.459 Y169.159 E94.62609
G1 X65.839 Y123.539 E96.3964
G1 X65.839 Y122.973 E96.41193
G1 X112.024 Y169.159 E98.20418
G1 X112.59 Y169.159 E98.21971
G1 X65.839 Y122.407 E100.03392
G1 X65.839 Y121.842 E100.04943
G1 X113.156 Y169.159 E101.88559
G1 X113.721 Y169.159 E101.90109
G1 X65.839 Y121.276 E103.75919
G1 X65.839 Y120.71 E103.77472
G1 X114.287 Y169.159 E105.65479
G1 X114.853 Y169.159 E105.67032
G1 X65.839 Y120.145 E107.57233
G1 X65.839 Y119.579 E107.58786
G1 X115.418 Y169.159 E109.51182
G1 X115.984 Y169.159 E109.52735
G1 X65.839 Y119.013 E111.47327
G1 X65.839 Y118.448 E111.48877
G1 X116.55 Y169.159 E113.45664
G1 X117.115 Y169.159 E113.47214
G1 X65.839 Y117.882 E115.46195
G1 X65.839 Y117.316 E115.47748
G1 X117.681 Y169.159 E117.48925
G1 X118.247 Y169.159 E117.50478
G1 X65.839 Y116.751 E119.5385
G1 X65.839 Y116.185 E119.55403
G1 X118.813 Y169.159 E121.60971
G1 X119.378 Y169.159 E121.62522
G1 X65.839 Y115.619 E123.70284
G1 X65.839 Y115.054 E123.71835
G1 X119.944 Y169.159 E125.81792
G1 X120.51 Y169.159 E125.83345
G1 X65.839 Y114.488 E127.95498
G1 X65.839 Y113.922 E127.97051
G1 X121.075 Y169.159 E130.11399
G1 X121.641 Y169.159 E130.12952
G1 X65.839 Y113.356 E132.29496
G1 X65.839 Y112.791 E132.31047
G1 X122.207 Y169.159 E134.49785
G1 X122.772 Y169.159 E134.51336
G1 X65.839 Y112.225 E136.72269
G1 X65.839 Y111.659 E136.73822
G1 X123.338 Y169.159 E138.96951
G1 X123.904 Y169.159 E138.98505
G1 X65.839 Y111.094 E141.23828
G1 X65.839 Y110.528 E141.25382
G1 X124.469 Y169.159 E143.529
G1 X125.035 Y169.159 E143.54453
G1 X65.839 Y109.962 E145.84168
G1 X65.839 Y109.397 E145.85718
G1 X125.601 Y169.159 E148.17627
G1 X126.166 Y169.159 E148.19178
G1 X65.839 Y108.831 E150.53282
G1 X65.839 Y108.265 E150.54835
G1 X126.732 Y169.159 E152.91135
G1 X127.298 Y169.159 E152.92688
G1 X65.839 Y107.7 E155.31182
G1 X65.839 Y107.134 E155.32735
G1 X127.863 Y169.159 E157.73424
G1 X128.429 Y169.159 E157.74978
G1 X65.839 Y106.568 E160.17863
G1 X65.839 Y106.003 E160.19413
G1 X128.995 Y169.159 E162.64493
G1 X129.561 Y169.159 E162.66046
G1 X65.839 Y105.437 E165.13322
G1 X65.839 Y104.871 E165.14875
G1 X130.126 Y169.159 E167.64346
G1 X130.692 Y169.159 E167.65899
G1 X65.839 Y104.306 E170.17564
G1 X65.839 Y103.74 E170.19117
G1 X131.258 Y169.159 E172.72979
G1 X131.823 Y169.159 E172.74529
G1 X65.839 Y103.174 E175.30585
G1 X65.839 Y102.608 E175.32138
G1 X132.389 Y169.159 E177.90391
G1 X132.955 Y169.159 E177.91944
G1 X65.839 Y102.043 E180.52391
G1 X65.839 Y101.477 E180.53944
G1 X133.52 Y169.159 E183.16585
G1 X134.086 Y169.159 E183.18138
G1 X65.839 Y100.911 E185.82976
G1 X65.839 Y100.346 E185.84526
G1 X134.652 Y169.159 E188.51558
G1 X135.217 Y169.159 E188.53108
G1 X65.839 Y99.78 E191.22335
G1 X65.839 Y99.214 E191.23888
G1 X135.783 Y169.159 E193.95311
G1 X136.349 Y169.159 E193.96864
G1 X65.839 Y98.649 E196.70481
G1 X65.839 Y98.083 E196.72035
G1 X136.914 Y169.159 E199.47846
G1 X137.48 Y169.159 E199.49399
G1 X65.839 Y97.517 E202.27408
G1 X65.839 Y96.952 E202.28958
G1 X138.046 Y169.159 E205.09161
G1 X138.612 Y169.159 E205.10714
G1 X65.839 Y96.386 E207.93113
G1 X65.839 Y95.82 E207.94666
G1 X139.177 Y169.159 E210.79259
G1 X139.743 Y169.159 E210.80813
G1 X65.839 Y95.255 E213.676
G1 X65.839 Y94.689 E213.69154
G1 X140.309 Y169.159 E216.58138
G1 X140.874 Y169.159 E216.59688
G1 X65.839 Y94.123 E219.50867
G1 X65.839 Y93.558 E219.52417
G1 X141.44 Y169.159 E222.45791
G1 X142.006 Y169.159 E222.47344
G1 X65.839 Y92.992 E225.42913
G1 X65.839 Y92.426 E225.44466
G1 X142.571 Y169.159 E228.42231
G1 X143.137 Y169.159 E228.43784
G1 X65.839 Y91.86 E231.43744
G1 X65.839 Y91.295 E231.45294
G1 X143.703 Y169.159 E234.47449
G1 X144.268 Y169.159 E234.49
G1 X65.839 Y90.729 E237.53349
G1 X65.839 Y90.163 E237.54902
G1 X144.834 Y169.159 E240.61448
G1 X145.4 Y169.159 E240.63001
G1 X65.839 Y89.598 E243.71741
G1 X65.839 Y89.032 E243.73294
G1 X145.965 Y169.159 E246.84229
G1 X146.531 Y169.159 E246.85782
G1 X65.839 Y88.466 E249.98913
G1 X65.839 Y87.901 E250.00463
G1 X147.097 Y169.159 E253.15789
G1 X147.662 Y169.159 E253.17339
G1 X65.839 Y87.335 E256.34859
G1 X65.839 Y86.769 E256.36412
G1 X148.228 Y169.159 E259.56129
G1 X148.794 Y169.159 E259.57682
G1 X65.839 Y86.204 E262.79593
G1 X65.839 Y85.638 E262.81146
G1 X149.36 Y169.159 E266.05253
G1 X149.925 Y169.159 E266.06803
G1 X65.839 Y85.072 E269.33105
G1 X65.839 Y84.507 E269.34655
G1 X150.491 Y169.159 E272.63151
G1 X151.057 Y169.159 E272.64704
G1 X65.839 Y83.941 E275.95397
G1 X65.839 Y83.375 E275.9695
G1 X151.622 Y169.159 E279.29837
G1 X152.188 Y169.159 E279.3139
G1 X65.839 Y82.809 E282.66473
G1 X65.839 Y82.244 E282.68024
G1 X152.754 Y169.159 E286.05301
G1 X153.319 Y169.159 E286.06852
G1 X65.839 Y81.678 E289.46324
G1 X65.839 Y81.112 E289.47877
G1 X153.885 Y169.159 E292.89546
G1 X154.159 Y169.159 E292.90297
G1 X154.159 Y168.867 E292.91099
G1 X65.839 Y80.547 E296.33829
G1 X65.839 Y79.981 E296.35382
G1 X154.159 Y168.302 E299.78113
G1 X154.159 Y167.736 E299.79667
G1 X65.839 Y79.415 E303.22398
G1 X65.839 Y78.85 E303.23949
G1 X154.159 Y167.17 E306.66679
G1 X154.159 Y166.604 E306.68232
G1 X65.839 Y78.284 E310.10962
G1 X65.839 Y77.718 E310.12515
G1 X154.159 Y166.039 E313.55247
G1 X154.159 Y165.473 E313.568
G1 X65.839 Y77.153 E316.9953
G1 X65.839 Y76.587 E317.01083
G1 X154.159 Y164.907 E320.43813
G1 X154.159 Y164.342 E320.45363
G1 X65.839 Y76.021 E323.88095
G1 X65.839 Y75.456 E323.89645
G1 X154.159 Y163.776 E327.32375
G1 X154.159 Y163.21 E327.33928
G1 X65.839 Y74.89 E330.76658
G1 X65.839 Y74.324 E330.78211
G1 X154.159 Y162.645 E334.20943
G1 X154.159 Y162.079 E334.22496
G1 X65.839 Y73.759 E337.65226
G1 X65.839 Y73.193 E337.66779
G1 X154.159 Y161.513 E341.09509
G1 X154.159 Y160.948 E341.11059
G1 X65.839 Y72.627 E344.53791
G1 X65.839 Y72.061 E344.55344
G1 X154.159 Y160.382 E347.98076
G1 X154.159 Y159.816 E347.99629
G1 X65.839 Y71.496 E351.42359
G1 X65.839 Y70.93 E351.43912
G1 X154.159 Y159.251 E354.86644
G1 X154.159 Y158.685 E354.88197
G1 X65.839 Y70.364 E358.30929
G1 X65.839 Y69.799 E358.3248
G1 X154.159 Y158.119 E361.75209
G1 X154.159 Y157.553 E361.76763
G1 X65.839 Y69.233 E365.19492
G1 X65.839 Y68.667 E365.21046
G1 X154.159 Y156.988 E368.63777
G1 X154.159 Y156.422 E368.65331
G1 X65.839 Y68.102 E372.0806
G1 X65.839 Y67.536 E372.09614
G1 X154.159 Y155.856 E375.52343
G1 X154.159 Y155.291 E375.53894
G1 X65.839 Y66.97 E378.96626
G1 X65.839 Y66.405 E378.98176
G1 X154.159 Y154.725 E382.40906
G1 X154.159 Y154.159 E382.42459
G1 X65.839 Y65.839 E385.85189
G1 X65.839 Y65.273 E385.86742
G1 X154.159 Y153.594 E389.29474
G1 X154.159 Y153.028 E389.31027
G1 X65.839 Y64.708 E392.73757
G1 X65.839 Y64.142 E392.7531
G1 X154.159 Y152.462 E396.1804
G1 X154.159 Y151.897 E396.1959
G1 X65.839 Y63.576 E399.62322
G1 X65.839 Y63.01 E399.63875
G1 X154.159 Y151.331 E403.06607
G1 X154.159 Y150.765 E403.0816
G1 X65.839 Y62.445 E406.5089
G1 X65.839 Y61.879 E406.52443
G1 X154.159 Y150.2 E409.95175
G1 X154.159 Y149.634 E409.96728
G1 X65.839 Y61.313 E413.3946
G1 X65.839 Y60.748 E413.4101
G1 X154.159 Y149.068 E416.8374
G1 X154.159 Y148.503 E416.85291
G1 X65.839 Y60.182 E420.28022
G1 X65.839 Y59.616 E420.29576
G1 X154.159 Y147.937 E423.72307
G1 X154.159 Y147.371 E423.7386
G1 X65.839 Y59.051 E427.1659
G1 X65.839 Y58.485 E427.18143
G1 X154.159 Y146.805 E430.60873
G1 X154.159 Y146.24 E430.62424
G1 X65.839 Y57.919 E434.05156
G1 X65.839 Y57.354 E434.06706
