;FLAVOR:Marlin
;TIME:862
;Filament used:0.666222m
;Layer height: 0.2
;MINX:92.2
;MINY:92.2
;MINZ:0.2
;MAXX:127.8
;MAXY:127.8
;MAXZ:7
                                         
;Creality Print GCode Generated by CXEngine:NO_MAGE_VERSION_GIT_HEAD_BRANCH
;CXEngine Release Time:2022-09-30 09:53:04
;Gcode Generated Time:2026-02-10 16:46:23
;----------Machine Config--------------
;Machine Name:Creality Ender-3
;Machine Height:250
;Machine Width:220
;Machine Depth:220
;Material name:PLA
;Number of Extruders:1
;ExtruderParams[0] Nozzle Diameter1000
;----------Profile Config---------------
;Engine Version:275f99b
;Engine Release Time:2022-09-30 09:42:18
;Layer Height:0.2
;Wall Thickness:0.8
;Top/Bottom Thickness:1
;Out Wall Line Width:0.4
;Inner Wall Line Width:0.4
;Inital Layer Height:200
;Wall Line Count:2
;Infill Line Distance:5.33
;Infill Pattern:grid
;Infill Sparse Density:15
;Infill Wipe Distance:0
;Print Temperature:200
;Bed Temperature:60
;Support Enable:false
;Support Density:30
;Support Angle:60
;Adhesion Type:brim
;machine is belt:false
;machine belt offset:10
;machine belt offset Y:0
;Raft Base Line Spacing:1.6
;Wait Heatup Sync:true
;----------Shell Config----------------
;Outer Wall Wipe Distance:200
;Outer Inset First:false
;Infill Before Walls:false
;Infill Overlap:0.16
;Fill Gaps Between Walls:everywhere
;Minimum Infill Area:1
;Top Surface Skin Layer:0
;Top Layers:3
;Z Seam Alignment:sharpest_corner
;Seam Corner Preference:z_seam_corner_inner
;Z Seam X:110
;Z Seam Y:110
;Horizontal Expansion:0
;Top/Bottom Pattern:zigzag
;Ironing Pattern:zigzag
;Vase Model:false
;----------Support Config----------------
;Support Type:everywhere
;Support Pattern:zigzag
;Support Infill Layer Thickness:0.2
;Minimum Support Area:5
;Enable Support Roof:false
;Support Roof Thickness:0.8
;Support Roof Pattern:lines
;Connect Support Lines:0
;Connect Support ZigZags:1
;Minimum Support X/Y Distance:0.2
;Support Line Distance:1.33
; ---------PrintSpeed & Travel----------
;Enable Print Cool:true
;Avoid Printed Parts Traveling:true
;Enable Retraction:true
;Retraction Distance:8
;Retraction Speed:100
;Retraction Prime Speed:100
;Maximum Retraction Count:100
;Minimum Extrusion Distance Window:1
;Z Hop When Retracted:false
;Z Hop Height:0.2
;Retract Before Outer Wall:true
;Print Speed:50
;Infill Speed:50

;Prime Tower Speed:50
;Travel Speed:120
;Initial Layer Speed:25
;Skirt/Brim Speed:25
;Combing Mode:infill
; --------SpecialModel&Mesh Fixes--------
;Union Overlapping Volum:true
;Remove All Holes:false
;Maximum Travel Resolution:0.6
;Maximum Deviation:0.05
;Maximum Model Angle:0.872665
;IS Mold Print:false
;Make Overhang Printable:false
;Enable Coasting:false
;Coasting Volumes:0.06
;Coasting Speed:0.9
;Raft AirGap:0.25
;Layer0 ZOverLap:0.13
;---------------------End of Head--------------------------
M140 S60
M105
M104 S200
M105
M109 S200
M105
M190 S60
M82 ;absolute extrusion mode
M220 S100 ;Reset Feedrate
M221 S100 ;Reset Flowrate

G28 ;Home

G92 E0 ;Reset Extruder
G1 Z2.0 F3000 ;Move Z Axis up
G1 X10.1 Y20 Z0.28 F5000.0 ;Move to start position
G1 X10.1 Y145.0 Z0.28 F1500.0 E15 ;Draw the first line
G1 X10.4 Y145.0 Z0.28 F5000.0 ;Move to side a little
G1 X10.4 Y20 Z0.28 F1500.0 E30 ;Draw the second line
G92 E0  ;Reset Extruder
G1 E-1.0000 F1800 ;Retract a bit
G1 Z2.0 F3000 ;Move Z Axis up
G1 E0.0000 F1800 

G92 E0
G92 E0
G1 F6000 E-8

;LAYER_COUNT:35

;LAYER:0
M107
G0 F3600 X94.623 Y94.349 Z0.2
;TYPE:SKIRT
G1 F6000 E0
G1 F1500 X95.222 Y93.834 E0.0289
G1 X95.87 Y93.383 E0.05779
G1 X96.561 Y92.999 E0.08671
G1 X97.286 Y92.687 E0.11559
G1 X98.039 Y92.45 E0.14447
G1 X98.813 Y92.291 E0.17338
G1 X99.598 Y92.21 E0.20225
G1 X120 Y92.2 E0.94868
G1 X120.789 Y92.24 E0.97758
G1 X121.569 Y92.359 E1.00645
G1 X122.334 Y92.557 E1.03536
G1 X123.074 Y92.831 E1.06423
G1 X123.783 Y93.179 E1.09313
G1 X124.454 Y93.597 E1.12205
G1 X125.078 Y94.08 E1.15092
G1 X125.651 Y94.623 E1.1798
G1 X126.166 Y95.222 E1.2087
G1 X126.617 Y95.87 E1.23759
G1 X127.001 Y96.561 E1.26651
G1 X127.313 Y97.286 E1.29539
G1 X127.55 Y98.039 E1.32427
G1 X127.709 Y98.813 E1.35318
G1 X127.79 Y99.598 E1.38205
G1 X127.8 Y120 E2.12848
G1 X127.76 Y120.789 E2.15738
G1 X127.641 Y121.569 E2.18625
G1 X127.443 Y122.334 E2.21516
G1 X127.169 Y123.074 E2.24403
G1 X126.821 Y123.783 E2.27293
G1 X126.403 Y124.454 E2.30185
G1 X125.92 Y125.078 E2.33072
G1 X125.377 Y125.651 E2.3596
G1 X124.778 Y126.166 E2.3885
G1 X124.13 Y126.617 E2.41739
G1 X123.439 Y127.001 E2.44631
G1 X122.714 Y127.313 E2.47519
G1 X121.961 Y127.55 E2.50407
G1 X121.187 Y127.709 E2.53298
G1 X120.402 Y127.79 E2.56185
G1 X100 Y127.8 E3.30828
G1 X99.211 Y127.76 E3.33719
G1 X98.431 Y127.641 E3.36605
G1 X97.666 Y127.443 E3.39496
G1 X96.926 Y127.169 E3.42383
G1 X96.217 Y126.821 E3.45273
G1 X95.546 Y126.403 E3.48165
G1 X94.922 Y125.92 E3.51052
G1 X94.349 Y125.377 E3.5394
G1 X93.834 Y124.778 E3.56831
G1 X93.383 Y124.13 E3.59719
G1 X92.999 Y123.439 E3.62611
G1 X92.687 Y122.714 E3.65499
G1 X92.45 Y121.961 E3.68387
G1 X92.291 Y121.187 E3.71278
G1 X92.21 Y120.402 E3.74165
G1 X92.2 Y100 E4.48808
G1 X92.24 Y99.211 E4.51699
G1 X92.359 Y98.431 E4.54585
G1 X92.557 Y97.666 E4.57477
G1 X92.831 Y96.926 E4.60364
G1 X93.179 Y96.217 E4.63253
G1 X93.597 Y95.546 E4.66145
G1 X94.08 Y94.922 E4.69032
G1 X94.623 Y94.349 E4.71921
G0 F3600 X95.016 Y94.53
G1 F1500 X95.611 Y94.042 E4.74736
G1 X96.253 Y93.619 E4.77549
G1 X96.936 Y93.264 E4.80365
G1 X97.651 Y92.983 E4.83176
G1 X98.393 Y92.777 E4.85993
G1 X99.151 Y92.649 E4.88806
G1 X100 Y92.6 E4.91917
G1 X120 Y92.6 E5.65089
G1 X120.768 Y92.64 E5.67903
G1 X121.528 Y92.759 E5.70717
G1 X122.271 Y92.957 E5.7353
G1 X122.99 Y93.231 E5.76346
G1 X123.676 Y93.578 E5.79158
G1 X124.323 Y93.994 E5.81972
G1 X124.923 Y94.475 E5.84786
G1 X125.47 Y95.016 E5.87601
G1 X125.958 Y95.611 E5.90416
G1 X126.381 Y96.253 E5.93229
G1 X126.736 Y96.936 E5.96045
G1 X127.017 Y97.651 E5.98856
G1 X127.223 Y98.393 E6.01673
G1 X127.351 Y99.151 E6.04486
G1 X127.4 Y100 E6.07597
G1 X127.4 Y120 E6.80769
G1 X127.36 Y120.768 E6.83583
G1 X127.241 Y121.528 E6.86397
G1 X127.043 Y122.271 E6.8921
G1 X126.769 Y122.99 E6.92026
G1 X126.422 Y123.676 E6.94838
G1 X126.006 Y124.323 E6.97652
G1 X125.525 Y124.923 E7.00466
G1 X124.984 Y125.47 E7.03281
G1 X124.389 Y125.958 E7.06096
G1 X123.747 Y126.381 E7.08909
G1 X123.064 Y126.736 E7.11725
G1 X122.349 Y127.017 E7.14536
G1 X121.607 Y127.223 E7.17353
G1 X120.849 Y127.351 E7.20166
G1 X120 Y127.4 E7.23277
G1 X100 Y127.4 E7.96449
G1 X99.232 Y127.36 E7.99263
G1 X98.472 Y127.241 E8.02077
G1 X97.729 Y127.043 E8.0489
G1 X97.01 Y126.769 E8.07706
G1 X96.324 Y126.422 E8.10518
G1 X95.677 Y126.006 E8.13332
G1 X95.077 Y125.525 E8.16146
G1 X94.53 Y124.984 E8.18961
G1 X94.042 Y124.389 E8.21776
G1 X93.619 Y123.747 E8.24589
G1 X93.264 Y123.064 E8.27405
G1 X92.983 Y122.349 E8.30216
G1 X92.777 Y121.607 E8.33033
G1 X92.649 Y120.849 E8.35846
G1 X92.6 Y120 E8.38957
G1 X92.6 Y100 E9.12129
G1 X92.64 Y99.232 E9.14943
G1 X92.759 Y98.472 E9.17757
G1 X92.957 Y97.729 E9.20571
G1 X93.231 Y97.01 E9.23386
G1 X93.578 Y96.324 E9.26198
G1 X93.994 Y95.677 E9.29012
G1 X94.475 Y95.077 E9.31826
G1 X95.016 Y94.53 E9.34641
G0 F3600 X95.408 Y94.716
G1 F1500 X95.998 Y94.257 E9.37376
G1 X96.634 Y93.862 E9.40115
G1 X97.308 Y93.538 E9.42851
G1 X98.013 Y93.288 E9.45587
G1 X98.741 Y93.114 E9.48326
G1 X99.483 Y93.019 E9.51063
G1 X120 Y93 E10.26127
G1 X120.747 Y93.04 E10.28863
G1 X121.485 Y93.159 E10.31598
G1 X122.207 Y93.357 E10.34337
G1 X122.903 Y93.63 E10.37073
G1 X123.566 Y93.977 E10.39811
G1 X124.189 Y94.392 E10.42549
G1 X124.763 Y94.871 E10.45284
G1 X125.284 Y95.408 E10.48022
G1 X125.743 Y95.998 E10.50757
G1 X126.138 Y96.634 E10.53496
G1 X126.462 Y97.308 E10.56232
G1 X126.712 Y98.013 E10.58969
G1 X126.886 Y98.741 E10.61707
G1 X126.981 Y99.483 E10.64444
G1 X127 Y120 E11.39508
G1 X126.96 Y120.747 E11.42245
G1 X126.841 Y121.485 E11.4498
G1 X126.643 Y122.207 E11.47719
G1 X126.37 Y122.903 E11.50454
G1 X126.023 Y123.566 E11.53192
G1 X125.608 Y124.189 E11.5593
G1 X125.129 Y124.763 E11.58666
G1 X124.592 Y125.284 E11.61403
G1 X124.002 Y125.743 E11.64138
G1 X123.366 Y126.138 E11.66877
G1 X122.692 Y126.462 E11.69613
G1 X121.987 Y126.712 E11.7235
G1 X121.259 Y126.886 E11.75088
G1 X120.517 Y126.981 E11.77825
G1 X100 Y127 E12.52889
G1 X99.253 Y126.96 E12.55626
G1 X98.515 Y126.841 E12.58361
G1 X97.793 Y126.643 E12.611
G1 X97.097 Y126.37 E12.63835
G1 X96.434 Y126.023 E12.66573
G1 X95.811 Y125.608 E12.69312
G1 X95.237 Y125.129 E12.72047
G1 X94.716 Y124.592 E12.74784
G1 X94.257 Y124.002 E12.77519
G1 X93.862 Y123.366 E12.80258
G1 X93.538 Y122.692 E12.82994
G1 X93.288 Y121.987 E12.85731
G1 X93.114 Y121.259 E12.88469
G1 X93.019 Y120.517 E12.91206
G1 X93 Y100 E13.6627
G1 X93.04 Y99.253 E13.69007
G1 X93.159 Y98.515 E13.71742
G1 X93.357 Y97.793 E13.74481
G1 X93.63 Y97.097 E13.77216
G1 X93.977 Y96.434 E13.79954
G1 X94.392 Y95.811 E13.82693
G1 X94.871 Y95.237 E13.85428
G1 X95.408 Y94.716 E13.88165
G0 F3600 X95.265 Y95.402
G1 F1500 X95.799 Y94.909 E13.90824
G1 X96.384 Y94.479 E13.93481
G1 X97.013 Y94.115 E13.9614
G1 X97.678 Y93.822 E13.98798
G1 X98.371 Y93.604 E14.01456
G1 X99.083 Y93.464 E14.04111
G1 X100 Y93.4 E14.07474
G1 X120 Y93.4 E14.80646
G1 X120.725 Y93.44 E14.83303
G1 X121.442 Y93.559 E14.85962
G1 X122.141 Y93.757 E14.8862
G1 X122.814 Y94.03 E14.91277
G1 X123.453 Y94.375 E14.93934
G1 X124.05 Y94.789 E14.96592
G1 X124.598 Y95.265 E14.99248
G1 X125.091 Y95.799 E15.01907
G1 X125.521 Y96.384 E15.04563
G1 X125.885 Y97.013 E15.07222
G1 X126.178 Y97.678 E15.0988
G1 X126.396 Y98.371 E15.12538
G1 X126.536 Y99.083 E15.15193
G1 X126.6 Y100 E15.18556
G1 X126.6 Y120 E15.91728
G1 X126.56 Y120.725 E15.94385
G1 X126.441 Y121.442 E15.97044
G1 X126.243 Y122.141 E15.99702
G1 X125.97 Y122.814 E16.02359
G1 X125.625 Y123.453 E16.05016
G1 X125.211 Y124.05 E16.07674
G1 X124.735 Y124.598 E16.1033
G1 X124.201 Y125.091 E16.12989
G1 X123.616 Y125.521 E16.15645
G1 X122.987 Y125.885 E16.18304
G1 X122.322 Y126.178 E16.20962
G1 X121.629 Y126.396 E16.2362
G1 X120.917 Y126.536 E16.26275
G1 X120 Y126.6 E16.29638
G1 X100 Y126.6 E17.02811
G1 X99.275 Y126.56 E17.05467
G1 X98.558 Y126.441 E17.08126
G1 X97.859 Y126.243 E17.10784
G1 X97.186 Y125.97 E17.13441
G1 X96.547 Y125.625 E17.16098
G1 X95.95 Y125.211 E17.18756
G1 X95.402 Y124.735 E17.21412
G1 X94.909 Y124.201 E17.24071
G1 X94.479 Y123.616 E17.26727
G1 X94.115 Y122.987 E17.29386
G1 X93.822 Y122.322 E17.32045
G1 X93.604 Y121.629 E17.34703
G1 X93.464 Y120.917 E17.37357
G1 X93.4 Y120 E17.4072
G1 X93.4 Y100 E18.13893
G1 X93.44 Y99.275 E18.16549
G1 X93.559 Y98.558 E18.19208
G1 X93.757 Y97.859 E18.21866
G1 X94.03 Y97.186 E18.24524
G1 X94.375 Y96.547 E18.2718
G1 X94.789 Y95.95 E18.29838
G1 X95.265 Y95.402 E18.32494
G0 F3600 X95.659 Y95.573
G1 F1500 X96.189 Y95.109 E18.35071
G1 X96.768 Y94.709 E18.37646
G1 X97.389 Y94.377 E18.40222
G1 X98.043 Y94.117 E18.42797
G1 X98.723 Y93.933 E18.45374
G1 X99.419 Y93.827 E18.4795
G1 X100 Y93.8 E18.50078
G1 X120 Y93.8 E19.2325
G1 X120.703 Y93.84 E19.25827
G1 X121.397 Y93.959 E19.28403
G1 X122.072 Y94.157 E19.30976
G1 X122.721 Y94.429 E19.33551
G1 X123.335 Y94.774 E19.36128
G1 X123.906 Y95.185 E19.38702
G1 X124.427 Y95.659 E19.41279
G1 X124.891 Y96.189 E19.43856
G1 X125.291 Y96.768 E19.4643
G1 X125.623 Y97.389 E19.49007
G1 X125.883 Y98.043 E19.51582
G1 X126.067 Y98.723 E19.54159
G1 X126.173 Y99.419 E19.56735
G1 X126.2 Y100 E19.58863
G1 X126.2 Y120 E20.32035
G1 X126.16 Y120.703 E20.34611
G1 X126.041 Y121.397 E20.37187
G1 X125.843 Y122.072 E20.39761
G1 X125.571 Y122.721 E20.42335
G1 X125.226 Y123.335 E20.44912
G1 X124.815 Y123.906 E20.47486
G1 X124.341 Y124.427 E20.50063
G1 X123.811 Y124.891 E20.5264
G1 X123.232 Y125.291 E20.55215
G1 X122.611 Y125.623 E20.57791
G1 X121.957 Y125.883 E20.60366
G1 X121.277 Y126.067 E20.62943
G1 X120.581 Y126.173 E20.65519
G1 X120 Y126.2 E20.67647
G1 X100 Y126.2 E21.40819
G1 X99.297 Y126.16 E21.43396
G1 X98.603 Y126.041 E21.45972
G1 X97.928 Y125.843 E21.48545
G1 X97.279 Y125.571 E21.5112
G1 X96.665 Y125.226 E21.53697
G1 X96.094 Y124.815 E21.56271
G1 X95.573 Y124.341 E21.58848
G1 X95.109 Y123.811 E21.61425
G1 X94.709 Y123.232 E21.63999
G1 X94.377 Y122.611 E21.66576
G1 X94.117 Y121.957 E21.69151
G1 X93.933 Y121.277 E21.71728
G1 X93.827 Y120.581 E21.74304
G1 X93.8 Y120 E21.76432
G1 X93.8 Y100 E22.49604
G1 X93.84 Y99.297 E22.5218
G1 X93.959 Y98.603 E22.54756
G1 X94.157 Y97.928 E22.5733
G1 X94.429 Y97.279 E22.59904
G1 X94.774 Y96.665 E22.62481
G1 X95.185 Y96.094 E22.65055
G1 X95.659 Y95.573 E22.67632
G0 F3600 X96.053 Y95.751
G1 F1500 X96.578 Y95.317 E22.70124
G1 X97.15 Y94.948 E22.72615
G1 X97.762 Y94.649 E22.75107
G1 X98.404 Y94.424 E22.77595
G1 X99.069 Y94.275 E22.80089
G1 X100 Y94.2 E22.83506
G1 X120 Y94.2 E23.56678
G1 X120.68 Y94.24 E23.5917
G1 X121.35 Y94.359 E23.6166
G1 X122.002 Y94.556 E23.64152
G1 X122.626 Y94.828 E23.66642
G1 X123.214 Y95.172 E23.69135
G1 X123.758 Y95.582 E23.71627
G1 X124.249 Y96.053 E23.74116
G1 X124.683 Y96.578 E23.76608
G1 X125.052 Y97.15 E23.79099
G1 X125.351 Y97.762 E23.81591
G1 X125.576 Y98.404 E23.8408
G1 X125.725 Y99.069 E23.86573
G1 X125.8 Y100 E23.8999
G1 X125.8 Y120 E24.63163
G1 X125.76 Y120.68 E24.65655
G1 X125.641 Y121.35 E24.68144
G1 X125.444 Y122.002 E24.70636
G1 X125.172 Y122.626 E24.73127
G1 X124.828 Y123.214 E24.75619
G1 X124.418 Y123.758 E24.78111
G1 X123.947 Y124.249 E24.80601
G1 X123.422 Y124.683 E24.83093
G1 X122.85 Y125.052 E24.85583
G1 X122.238 Y125.351 E24.88075
G1 X121.596 Y125.576 E24.90564
G1 X120.931 Y125.725 E24.93057
G1 X120 Y125.8 E24.96475
G1 X100 Y125.8 E25.69647
G1 X99.32 Y125.76 E25.72139
G1 X98.65 Y125.641 E25.74629
G1 X97.998 Y125.444 E25.77121
G1 X97.374 Y125.172 E25.79611
G1 X96.786 Y124.828 E25.82103
G1 X96.242 Y124.418 E25.84596
G1 X95.751 Y123.947 E25.87085
G1 X95.317 Y123.422 E25.89577
G1 X94.948 Y122.85 E25.92067
G1 X94.649 Y122.238 E25.94559
G1 X94.424 Y121.596 E25.97048
G1 X94.275 Y120.931 E25.99542
G1 X94.2 Y120 E26.02959
G1 X94.2 Y100 E26.76131
G1 X94.24 Y99.32 E26.78623
G1 X94.359 Y98.65 E26.81113
G1 X94.556 Y97.998 E26.83605
G1 X94.828 Y97.374 E26.86095
G1 X95.172 Y96.786 E26.88588
G1 X95.582 Y96.242 E26.9108
G1 X96.053 Y95.751 E26.93569
G0 F3600 X96.445 Y95.935
G1 F1500 X96.965 Y95.534 E26.95972
G1 X97.529 Y95.198 E26.98374
G1 X98.131 Y94.934 E27.00778
G1 X98.76 Y94.744 E27.03182
G1 X99.407 Y94.633 E27.05584
G1 X100 Y94.6 E27.07757
G1 X120 Y94.6 E27.80929
G1 X120.656 Y94.64 E27.83334
G1 X121.302 Y94.759 E27.85737
G1 X121.929 Y94.956 E27.88142
G1 X122.527 Y95.228 E27.90545
G1 X123.088 Y95.57 E27.92949
G1 X123.603 Y95.978 E27.95353
G1 X124.065 Y96.445 E27.97756
G1 X124.466 Y96.965 E28.00159
G1 X124.802 Y97.529 E28.02561
G1 X125.066 Y98.131 E28.04965
G1 X125.256 Y98.76 E28.07369
G1 X125.367 Y99.407 E28.09771
G1 X125.4 Y100 E28.11944
G1 X125.4 Y120 E28.85116
G1 X125.36 Y120.656 E28.87521
G1 X125.241 Y121.302 E28.89924
G1 X125.044 Y121.929 E28.92329
G1 X124.772 Y122.527 E28.94732
G1 X124.43 Y123.088 E28.97136
G1 X124.022 Y123.603 E28.9954
G1 X123.555 Y124.065 E29.01943
G1 X123.035 Y124.466 E29.04346
G1 X122.471 Y124.802 E29.06748
G1 X121.869 Y125.066 E29.09153
G1 X121.24 Y125.256 E29.11556
G1 X120.593 Y125.367 E29.13958
G1 X120 Y125.4 E29.16131
G1 X100 Y125.4 E29.89303
G1 X99.344 Y125.36 E29.91708
G1 X98.698 Y125.241 E29.94111
G1 X98.071 Y125.044 E29.96516
G1 X97.473 Y124.772 E29.98919
G1 X96.912 Y124.43 E30.01323
G1 X96.397 Y124.022 E30.03727
G1 X95.935 Y123.555 E30.0613
G1 X95.534 Y123.035 E30.08533
G1 X95.198 Y122.471 E30.10935
G1 X94.934 Y121.869 E30.1334
G1 X94.744 Y121.24 E30.15743
G1 X94.633 Y120.593 E30.18145
G1 X94.6 Y120 E30.20318
G1 X94.6 Y100 E30.9349
G1 X94.64 Y99.344 E30.95895
G1 X94.759 Y98.698 E30.98298
G1 X94.956 Y98.071 E31.00703
G1 X95.228 Y97.473 E31.03106
G1 X95.57 Y96.912 E31.0551
G1 X95.978 Y96.397 E31.07914
G1 X96.445 Y95.935 E31.10317
G0 F3600 X96.373 Y96.559
G1 F1500 X96.836 Y96.129 E31.12629
G1 X97.35 Y95.76 E31.14944
G1 X97.906 Y95.46 E31.17255
G1 X98.495 Y95.232 E31.19566
G1 X99.109 Y95.08 E31.2188
G1 X100 Y95 E31.25153
G1 X120 Y95 E31.98326
G1 X120.631 Y95.04 E32.00639
G1 X121.252 Y95.159 E32.02952
