;FLAVOR:Marlin
;TIME:11529
;Filament used:4.63535m
;Layer height: 0.15
;MINX:43.7
;MINY:22.217
;MINZ:0.15
;MAXX:176.3
;MAXY:197.8
;MAXZ:34.95
                                 
;Creality Print GCode Generated by CXEngine:NO_MAGE_VERSION_GIT_HEAD_BRANCH
;CXEngine Release Time:2022-09-30 09:53:04
;Gcode Generated Time:2026-06-17 17:50:40
;----------Machine Config--------------
;Machine Name:Creality Ender-3
;Machine Height:250
;Machine Width:220
;Machine Depth:220
;Material name:PLA
;Number of Extruders:1
;ExtruderParams[0] Nozzle Diameter1000
;----------Profile Config---------------
;Engine Version:275f99b
;Engine Release Time:2022-09-30 09:42:18
;Layer Height:0.15
;Wall Thickness:0.8
;Top/Bottom Thickness:1
;Out Wall Line Width:0.4
;Inner Wall Line Width:0.4
;Inital Layer Height:150
;Wall Line Count:2
;Infill Line Distance:4
;Infill Pattern:grid
;Infill Sparse Density:20
;Infill Wipe Distance:0
;Print Temperature:200
;Bed Temperature:60
;Support Enable:true
;Support Density:30
;Support Angle:30
;Adhesion Type:brim
;machine is belt:false
;machine belt offset:10
;machine belt offset Y:0
;Raft Base Line Spacing:1.6
;Wait Heatup Sync:true
;----------Shell Config----------------
;Outer Wall Wipe Distance:200
;Outer Inset First:false
;Infill Before Walls:false
;Infill Overlap:0.16
;Fill Gaps Between Walls:everywhere
;Minimum Infill Area:1
;Top Surface Skin Layer:0
;Top Layers:4
;Z Seam Alignment:sharpest_corner
;Seam Corner Preference:z_seam_corner_inner
;Z Seam X:110
;Z Seam Y:110
;Horizontal Expansion:0
;Top/Bottom Pattern:zigzag
;Ironing Pattern:zigzag
;Vase Model:false
;----------Support Config----------------
;Support Type:everywhere
;Support Pattern:zigzag
;Support Infill Layer Thickness:0.15
;Minimum Support Area:5
;Enable Support Roof:false
;Support Roof Thickness:0.8
;Support Roof Pattern:lines
;Connect Support Lines:0
;Connect Support ZigZags:1
;Minimum Support X/Y Distance:0.2
;Support Line Distance:1.33
; ---------PrintSpeed & Travel----------
;Enable Print Cool:true
;Avoid Printed Parts Traveling:true
;Enable Retraction:true
;Retraction Distance:8
;Retraction Speed:100
;Retraction Prime Speed:100
;Maximum Retraction Count:100
;Minimum Extrusion Distance Window:1
;Z Hop When Retracted:false
;Z Hop Height:0.2
;Retract Before Outer Wall:true
;Print Speed:50
;Infill Speed:50

;Prime Tower Speed:50
;Travel Speed:120
;Initial Layer Speed:25
;Skirt/Brim Speed:25
;Combing Mode:infill
; --------SpecialModel&Mesh Fixes--------
;Union Overlapping Volum:true
;Remove All Holes:false
;Maximum Travel Resolution:0.6
;Maximum Deviation:0.05
;Maximum Model Angle:0.872665
;IS Mold Print:false
;Make Overhang Printable:false
;Enable Coasting:false
;Coasting Volumes:0.06
;Coasting Speed:0.9
;Raft AirGap:0.25
;Layer0 ZOverLap:0.13
;---------------------End of Head--------------------------
M140 S60
M105
M104 S200
M105
M109 S200
M105
M190 S60
M82 ;absolute extrusion mode
M220 S100 ;Reset Feedrate
M221 S100 ;Reset Flowrate

G28 ;Home

G92 E0 ;Reset Extruder
G1 Z2.0 F3000 ;Move Z Axis up
G1 X10.1 Y20 Z0.28 F5000.0 ;Move to start position
G1 X10.1 Y145.0 Z0.28 F1500.0 E15 ;Draw the first line
G1 X10.4 Y145.0 Z0.28 F5000.0 ;Move to side a little
G1 X10.4 Y20 Z0.28 F1500.0 E30 ;Draw the second line
G92 E0  ;Reset Extruder
G1 E-1.0000 F1800 ;Retract a bit
G1 Z2.0 F3000 ;Move Z Axis up
G1 E0.0000 F1800 

G92 E0
G92 E0
G1 F6000 E-8

;LAYER_COUNT:233

;LAYER:0
M107
G0 F3600 X92.451 Y34.283 Z0.15
;;retract;;
G0 X50.834 Y169.013
G0 X50.84 Y189.527
G0 X51.835 Y190.665
G0 X106.744 Y190.574
G0 X107.117 Y190.2
;TYPE:SKIRT
G1 F6000 E0
G1 F1500 X106.859 Y190.024 E0.00857
G1 X106.8 Y189.883 E0.01276
G1 X106.8 Y51.716 E3.80401
G1 X105.698 Y51.341 E3.83595
G1 X104.345 Y50.661 E3.87751
G1 X58.215 Y189.987 E7.90466
G1 X58.037 Y190.162 E7.91151
G1 X57.92 Y190.2 E7.91488
G1 X52.175 Y190.2 E8.07252
G1 X51.893 Y189.951 E8.08284
G1 X51.865 Y189.771 E8.08784
G1 X99.686 Y45.332 E12.26277
G1 X99.176 Y43.872 E12.3052
G1 X98.894 Y42.446 E12.34509
G1 X98.801 Y40.982 E12.38534
G1 X98.9 Y39.515 E12.42569
G1 X99.189 Y38.08 E12.46585
G1 X99.659 Y36.698 E12.50591
G1 X100.312 Y35.383 E12.54619
G1 X101.127 Y34.167 E12.58636
G1 X102.094 Y33.069 E12.62651
G1 X103.198 Y32.103 E12.66676
G1 X104.415 Y31.294 E12.70686
G1 X105.736 Y30.644 E12.74726
G1 X107.117 Y30.179 E12.78724
G1 X108.554 Y29.894 E12.82744
G1 X110.019 Y29.801 E12.86772
G1 X111.485 Y29.9 E12.90804
G1 X112.92 Y30.189 E12.94821
G1 X114.302 Y30.659 E12.98826
G1 X115.617 Y31.312 E13.02855
G1 X116.833 Y32.127 E13.06872
G1 X117.931 Y33.094 E13.10886
G1 X118.897 Y34.198 E13.14912
G1 X119.706 Y35.415 E13.18922
G1 X120.355 Y36.733 E13.22953
G1 X120.821 Y38.117 E13.2696
G1 X121.106 Y39.555 E13.30983
G1 X121.194 Y40.962 E13.34851
G1 X121.1 Y42.484 E13.39035
G1 X120.812 Y43.916 E13.43043
G1 X120.315 Y45.333 E13.47164
G1 X168.135 Y189.771 E17.64652
G1 X167.987 Y190.117 E17.65685
G1 X167.825 Y190.2 E17.66185
G1 X162.08 Y190.2 E17.81949
G1 X161.858 Y190.086 E17.82633
G1 X161.785 Y189.987 E17.82971
G1 X115.655 Y50.662 E21.85683
G1 X114.216 Y51.372 E21.90086
G1 X113.2 Y51.716 E21.9303
G1 X113.2 Y189.883 E25.72155
G1 X113.024 Y190.141 E25.73012
G1 X112.883 Y190.2 E25.73431
G1 X107.117 Y190.2 E25.89253
G0 F3600 X107.117 Y190.6
G1 F1500 X106.693 Y190.424 E25.90512
G1 X106.452 Y190.128 E25.9156
G1 X106.4 Y189.883 E25.92247
G1 X106.4 Y52.003 E29.70584
G1 X105.52 Y51.699 E29.73139
G1 X104.578 Y51.231 E29.76025
G1 X58.595 Y190.113 E33.77457
G1 X58.377 Y190.41 E33.78468
G1 X58.075 Y190.58 E33.79419
G1 X52.175 Y190.6 E33.95608
G1 X51.774 Y190.447 E33.96786
G1 X51.569 Y190.186 E33.97697
G1 X51.458 Y189.771 E33.98876
G1 X51.515 Y189.556 E33.99486
G1 X51.173 Y189.468 E34.00455
G1 X50.921 Y189.121 E34.01632
G1 X50.9 Y188.965 E34.02064
G1 X50.9 Y169.289 E34.56054
G1 X51.076 Y168.865 E34.57313
G1 X52.365 Y167.576 E34.62315
G1 X52.544 Y167.452 E34.62913
G1 X52.789 Y167.4 E34.636
G1 X57.211 Y167.4 E34.75734
G1 X57.635 Y167.576 E34.76994
G1 X58.504 Y168.445 E34.80366
G1 X99.263 Y45.335 E38.36208
G1 X98.783 Y43.95 E38.4023
G1 X98.495 Y42.472 E38.44362
G1 X98.402 Y40.956 E38.48529
G1 X98.508 Y39.436 E38.5271
G1 X98.81 Y37.951 E38.56869
G1 X99.3 Y36.521 E38.61016
G1 X99.979 Y35.161 E38.65187
G1 X100.826 Y33.903 E38.69349
G1 X101.83 Y32.768 E38.73507
G1 X102.976 Y31.77 E38.77677
G1 X104.238 Y30.935 E38.81829
G1 X105.608 Y30.265 E38.86014
G1 X107.039 Y29.787 E38.90154
G1 X108.528 Y29.495 E38.94317
G1 X110.045 Y29.402 E38.98488
G1 X111.564 Y29.508 E39.02666
G1 X113.049 Y29.81 E39.06824
G1 X114.479 Y30.3 E39.10972
G1 X115.839 Y30.979 E39.15143
G1 X117.097 Y31.826 E39.19304
G1 X118.232 Y32.83 E39.23462
G1 X119.23 Y33.976 E39.27632
G1 X120.065 Y35.238 E39.31784
G1 X120.734 Y36.605 E39.3596
G1 X121.213 Y38.039 E39.40109
G1 X121.505 Y39.53 E39.44278
G1 X121.593 Y40.986 E39.4828
G1 X121.492 Y42.563 E39.52617
G1 X121.189 Y44.048 E39.56775
G1 X120.738 Y45.335 E39.60517
G1 X161.496 Y168.445 E43.16358
G1 X162.365 Y167.576 E43.1973
G1 X162.544 Y167.452 E43.20328
G1 X162.789 Y167.4 E43.21015
G1 X167.211 Y167.4 E43.33149
G1 X167.635 Y167.576 E43.34409
G1 X168.924 Y168.865 E43.39411
G1 X169.048 Y169.044 E43.40008
G1 X169.1 Y169.289 E43.40695
G1 X169.1 Y188.965 E43.94686
G1 X168.947 Y189.366 E43.95863
G1 X168.565 Y189.561 E43.9704
G1 X168.485 Y189.555 E43.9726
G1 X168.544 Y189.862 E43.98118
G1 X168.431 Y190.186 E43.9906
G1 X168.153 Y190.502 E44.00215
G1 X167.825 Y190.6 E44.01154
G1 X162.08 Y190.6 E44.16918
G1 X161.728 Y190.486 E44.17933
G1 X161.473 Y190.252 E44.18883
G1 X161.405 Y190.113 E44.19308
G1 X115.422 Y51.231 E48.20739
G1 X114.344 Y51.751 E48.24023
G1 X113.6 Y52.003 E48.26179
G1 X113.6 Y189.883 E52.04516
G1 X113.424 Y190.307 E52.05776
G1 X113.128 Y190.548 E52.06823
G1 X112.883 Y190.6 E52.07511
G1 X107.117 Y190.6 E52.23332
G0 F3600 X107.117 Y191
G1 F1500 X106.838 Y190.96 E52.24106
G1 X106.581 Y190.844 E52.24879
G1 X106.293 Y190.59 E52.25933
G1 X106.124 Y190.364 E52.26707
G1 X106.024 Y190.1 E52.27482
G1 X106 Y189.883 E52.28081
G1 X106 Y52.29 E56.05631
G1 X105.342 Y52.058 E56.07545
G1 X104.812 Y51.794 E56.0917
G1 X58.974 Y190.238 E60.09336
G1 X58.849 Y190.491 E60.1011
G1 X58.506 Y190.81 E60.11396
G1 X58.257 Y190.942 E60.12169
G1 X57.92 Y191 E60.13107
G1 X52.175 Y191 E60.28871
G1 X51.896 Y190.96 E60.29645
G1 X51.639 Y190.844 E60.30418
G1 X51.365 Y190.586 E60.31451
G1 X51.113 Y190.17 E60.32786
G1 X51.061 Y189.863 E60.3364
G1 X50.833 Y189.71 E60.34393
G1 X50.651 Y189.494 E60.35168
G1 X50.537 Y189.236 E60.35942
G1 X50.5 Y188.965 E60.36693
G1 X50.5 Y169.289 E60.90683
G1 X50.54 Y169.01 E60.91457
G1 X50.656 Y168.753 E60.9223
G1 X50.793 Y168.582 E60.92831
G1 X52.082 Y167.293 E60.97833
G1 X52.308 Y167.124 E60.98608
G1 X52.572 Y167.024 E60.99382
G1 X52.789 Y167 E60.99982
G1 X57.211 Y167 E61.12115
G1 X57.49 Y167.04 E61.12889
G1 X57.747 Y167.156 E61.13662
G1 X58.329 Y167.704 E61.15856
G1 X98.841 Y45.34 E64.69541
G1 X98.391 Y44.028 E64.73347
G1 X98.096 Y42.498 E64.77623
G1 X98.003 Y40.929 E64.81936
G1 X98.115 Y39.358 E64.86258
G1 X98.431 Y37.823 E64.90558
G1 X98.942 Y36.343 E64.94854
G1 X99.647 Y34.938 E64.99168
G1 X100.526 Y33.639 E65.03471
G1 X101.567 Y32.467 E65.07773
G1 X102.755 Y31.437 E65.12087
G1 X104.061 Y30.576 E65.16379
G1 X105.48 Y29.886 E65.20709
G1 X106.961 Y29.394 E65.24991
G1 X108.503 Y29.096 E65.29301
G1 X110.072 Y29.003 E65.33614
G1 X111.642 Y29.115 E65.37932
G1 X113.177 Y29.431 E65.42233
G1 X114.657 Y29.942 E65.46529
G1 X116.062 Y30.647 E65.50842
G1 X117.361 Y31.526 E65.55146
G1 X118.533 Y32.567 E65.59448
G1 X119.563 Y33.755 E65.63762
G1 X120.423 Y35.061 E65.68053
G1 X121.113 Y36.477 E65.72375
G1 X121.606 Y37.961 E65.76666
G1 X121.904 Y39.504 E65.80978
G1 X121.992 Y41.01 E65.85118
G1 X121.885 Y42.641 E65.89603
G1 X121.567 Y44.181 E65.93917
G1 X121.16 Y45.341 E65.97291
G1 X161.671 Y167.704 E69.50973
G1 X162.082 Y167.293 E69.52568
G1 X162.308 Y167.124 E69.53342
G1 X162.572 Y167.024 E69.54117
G1 X162.789 Y167 E69.54716
G1 X167.211 Y167 E69.66849
G1 X167.49 Y167.04 E69.67623
G1 X167.747 Y167.156 E69.68397
G1 X167.918 Y167.293 E69.68998
G1 X169.207 Y168.582 E69.74
G1 X169.376 Y168.808 E69.74774
G1 X169.476 Y169.072 E69.75549
G1 X169.5 Y169.289 E69.76148
G1 X169.5 Y188.965 E70.30138
G1 X169.46 Y189.244 E70.30911
G1 X169.344 Y189.501 E70.31685
G1 X169.161 Y189.716 E70.3246
G1 X168.937 Y189.862 E70.33194
G1 X168.915 Y190.078 E70.33789
G1 X168.755 Y190.42 E70.34825
G1 X168.44 Y190.789 E70.36157
G1 X168.195 Y190.929 E70.36931
G1 X167.825 Y191 E70.37965
G1 X162.08 Y191 E70.53729
G1 X161.801 Y190.96 E70.54502
G1 X161.389 Y190.734 E70.55792
G1 X161.186 Y190.538 E70.56566
G1 X161.026 Y190.238 E70.57499
G1 X115.187 Y51.791 E74.57673
G1 X114.473 Y52.13 E74.59842
G1 X114 Y52.29 E74.61212
G1 X114 Y189.883 E78.38762
G1 X113.96 Y190.162 E78.39535
G1 X113.844 Y190.419 E78.40309
G1 X113.59 Y190.707 E78.41363
G1 X113.364 Y190.876 E78.42137
G1 X113.1 Y190.976 E78.42912
G1 X112.883 Y191 E78.43511
G1 X107.117 Y191 E78.59333
G0 F3600 X107.117 Y191.4
G1 F1500 X106.785 Y191.36 E78.6025
G1 X106.473 Y191.243 E78.61164
G1 X106.01 Y190.873 E78.62791
G1 X105.804 Y190.61 E78.63707
G1 X105.665 Y190.306 E78.64625
G1 X105.6 Y189.883 E78.65799
G1 X105.6 Y52.577 E82.42561
G1 X105.047 Y52.358 E82.44193
G1 X59.354 Y190.364 E86.43093
G1 X59.212 Y190.666 E86.44009
G1 X59.002 Y190.926 E86.44926
G1 X58.741 Y191.134 E86.45842
G1 X58.449 Y191.296 E86.46758
G1 X58.127 Y191.385 E86.47675
G1 X52.175 Y191.4 E86.64007
G1 X51.843 Y191.36 E86.64924
G1 X51.531 Y191.243 E86.65839
G1 X51.254 Y191.055 E86.66757
G1 X50.92 Y190.654 E86.68189
G1 X50.758 Y190.362 E86.69106
G1 X50.686 Y190.097 E86.69859
G1 X50.402 Y189.833 E86.70923
G1 X50.227 Y189.549 E86.71838
G1 X50.125 Y189.231 E86.72755
G1 X50.1 Y188.965 E86.73488
G1 X50.1 Y169.289 E87.27478
G1 X50.14 Y168.957 E87.28396
G1 X50.257 Y168.645 E87.2931
G1 X50.51 Y168.299 E87.30486
G1 X51.799 Y167.01 E87.35488
G1 X52.062 Y166.804 E87.36405
G1 X52.366 Y166.665 E87.37322
G1 X52.789 Y166.6 E87.38496
G1 X57.211 Y166.6 E87.5063
G1 X57.543 Y166.64 E87.51548
G1 X57.855 Y166.757 E87.52462
G1 X58.149 Y166.972 E87.53462
G1 X98.418 Y45.343 E91.05023
G1 X97.999 Y44.106 E91.08607
G1 X97.697 Y42.523 E91.13029
G1 X97.604 Y40.903 E91.17481
G1 X97.723 Y39.279 E91.21949
G1 X98.052 Y37.695 E91.26389
G1 X98.583 Y36.166 E91.3083
G1 X99.314 Y34.716 E91.35286
G1 X100.225 Y33.375 E91.39734
G1 X101.303 Y32.167 E91.44177
G1 X102.533 Y31.104 E91.48638
G1 X103.884 Y30.218 E91.53071
G1 X105.352 Y29.507 E91.57546
G1 X106.883 Y29.002 E91.6197
G1 X108.477 Y28.697 E91.66423
G1 X110.098 Y28.604 E91.70879
G1 X111.721 Y28.723 E91.75344
G1 X113.305 Y29.052 E91.79783
G1 X114.834 Y29.583 E91.84224
G1 X116.284 Y30.314 E91.8868
G1 X117.625 Y31.225 E91.93129
G1 X118.833 Y32.303 E91.97571
G1 X119.896 Y33.533 E92.02032
G1 X120.782 Y34.884 E92.06465
G1 X121.492 Y36.349 E92.10932
G1 X121.998 Y37.883 E92.15365
G1 X122.303 Y39.479 E92.19823
G1 X122.391 Y41.034 E92.24097
G1 X122.277 Y42.72 E92.28734
G1 X121.944 Y44.313 E92.332
G1 X121.583 Y45.344 E92.36197
G1 X161.85 Y166.97 E95.87749
G1 X162.062 Y166.804 E95.88488
G1 X162.366 Y166.665 E95.89405
G1 X162.789 Y166.6 E95.90579
G1 X167.211 Y166.6 E96.02713
G1 X167.543 Y166.64 E96.03631
G1 X167.855 Y166.757 E96.04545
G1 X168.201 Y167.01 E96.05721
G1 X169.49 Y168.299 E96.10723
G1 X169.696 Y168.562 E96.1164
G1 X169.835 Y168.866 E96.12557
G1 X169.9 Y169.289 E96.13731
G1 X169.9 Y188.965 E96.67721
G1 X169.86 Y189.297 E96.68639
G1 X169.743 Y189.609 E96.69553
G1 X169.555 Y189.886 E96.70472
G1 X169.313 Y190.103 E96.71364
G1 X169.236 Y190.376 E96.72142
G1 X168.96 Y190.82 E96.73577
G1 X168.733 Y191.066 E96.74495
G1 X168.455 Y191.25 E96.7541
G1 X168.14 Y191.364 E96.76329
G1 X167.825 Y191.4 E96.77199
G1 X162.08 Y191.4 E96.92963
G1 X161.748 Y191.36 E96.93881
G1 X161.436 Y191.243 E96.94795
G1 X161.154 Y191.058 E96.95721
G1 X160.909 Y190.831 E96.96637
G1 X160.724 Y190.553 E96.97553
G1 X114.951 Y52.351 E100.97033
G1 X114.4 Y52.577 E100.98667
G1 X114.4 Y189.883 E104.75429
G1 X114.36 Y190.215 E104.76347
G1 X114.243 Y190.527 E104.77261
G1 X113.873 Y190.99 E104.78887
G1 X113.61 Y191.196 E104.79804
G1 X113.306 Y191.335 E104.80721
G1 X112.883 Y191.4 E104.81896
G1 X107.117 Y191.4 E104.97717
G0 F3600 X107.117 Y191.8
G1 F1500 X106.74 Y191.76 E104.98758
G1 X106.38 Y191.642 E104.99797
G1 X106.053 Y191.452 E105.00835
G1 X105.727 Y191.156 E105.02043
G1 X105.489 Y190.861 E105.03083
G1 X105.318 Y190.523 E105.04123
G1 X105.221 Y190.157 E105.05162
G1 X105.2 Y189.883 E105.05916
G1 X105.2 Y53.169 E108.81054
G1 X59.734 Y190.49 E112.77973
G1 X59.577 Y190.835 E112.79013
G1 X59.352 Y191.14 E112.80053
G1 X58.975 Y191.458 E112.81407
G1 X58.647 Y191.647 E112.82445
G1 X58.286 Y191.762 E112.83485
G1 X57.92 Y191.8 E112.84495
G1 X52.175 Y191.8 E113.00259
G1 X51.798 Y191.76 E113.01299
G1 X51.438 Y191.642 E113.02338
G1 X51.111 Y191.452 E113.03376
G1 X50.716 Y191.055 E113.04913
G1 X50.408 Y190.56 E113.06513
G1 X50.332 Y190.323 E113.07196
G1 X50.138 Y190.142 E113.07924
G1 X49.922 Y189.831 E113.08963
G1 X49.776 Y189.481 E113.10003
G1 X49.7 Y188.965 E113.11434
G1 X49.7 Y169.289 E113.65425
G1 X49.74 Y168.912 E113.66465
G1 X49.858 Y168.552 E113.67504
G1 X50.048 Y168.225 E113.68542
G1 X51.516 Y166.727 E113.74297
G1 X51.811 Y166.489 E113.75337
G1 X52.149 Y166.318 E113.76377
G1 X52.515 Y166.221 E113.77416
G1 X57.211 Y166.2 E113.90301
G1 X57.588 Y166.24 E113.91342
G1 X57.933 Y166.353 E113.92338
G1 X97.995 Y45.347 E117.42098
G1 X97.606 Y44.184 E117.45463
G1 X97.298 Y42.549 E117.50028
G1 X97.205 Y40.877 E117.54623
G1 X97.331 Y39.201 E117.59235
G1 X97.673 Y37.566 E117.63818
G1 X98.225 Y35.989 E117.68403
G1 X98.982 Y34.494 E117.73001
G1 X99.925 Y33.111 E117.77594
G1 X101.039 Y31.866 E117.82179
G1 X102.311 Y30.771 E117.86784
G1 X103.707 Y29.859 E117.9136
G1 X105.224 Y29.128 E117.9598
G1 X106.804 Y28.61 E118.00543
G1 X108.451 Y28.298 E118.05142
G1 X110.124 Y28.205 E118.0974
G1 X111.799 Y28.331 E118.14349
G1 X113.434 Y28.673 E118.18933
G1 X115.011 Y29.225 E118.23517
G1 X116.506 Y29.982 E118.28116
G1 X117.889 Y30.925 E118.32709
G1 X119.134 Y32.039 E118.37293
G1 X120.229 Y33.311 E118.41898
