;FLAVOR:Marlin
;TIME:17725
;Filament used:8.13933m
;Layer height: 0.15
;MINX:43.2
;MINY:22.217
;MINZ:0.15
;MAXX:176.8
;MAXY:197.8
;MAXZ:39.9
                                  
;Creality Print GCode Generated by CXEngine:NO_MAGE_VERSION_GIT_HEAD_BRANCH
;CXEngine Release Time:2022-09-30 09:53:04
;Gcode Generated Time:2026-06-17 23:56:41
;----------Machine Config--------------
;Machine Name:Creality Ender-3
;Machine Height:250
;Machine Width:220
;Machine Depth:220
;Material name:PLA
;Number of Extruders:1
;ExtruderParams[0] Nozzle Diameter1000
;----------Profile Config---------------
;Engine Version:275f99b
;Engine Release Time:2022-09-30 09:42:18
;Layer Height:0.15
;Wall Thickness:0.8
;Top/Bottom Thickness:1
;Out Wall Line Width:0.4
;Inner Wall Line Width:0.4
;Inital Layer Height:150
;Wall Line Count:2
;Infill Line Distance:4
;Infill Pattern:grid
;Infill Sparse Density:20
;Infill Wipe Distance:0
;Print Temperature:200
;Bed Temperature:60
;Support Enable:true
;Support Density:30
;Support Angle:30
;Adhesion Type:brim
;machine is belt:false
;machine belt offset:10
;machine belt offset Y:0
;Raft Base Line Spacing:1.6
;Wait Heatup Sync:true
;----------Shell Config----------------
;Outer Wall Wipe Distance:200
;Outer Inset First:false
;Infill Before Walls:false
;Infill Overlap:0.16
;Fill Gaps Between Walls:everywhere
;Minimum Infill Area:1
;Top Surface Skin Layer:0
;Top Layers:4
;Z Seam Alignment:sharpest_corner
;Seam Corner Preference:z_seam_corner_inner
;Z Seam X:110
;Z Seam Y:110
;Horizontal Expansion:0
;Top/Bottom Pattern:zigzag
;Ironing Pattern:zigzag
;Vase Model:false
;----------Support Config----------------
;Support Type:everywhere
;Support Pattern:zigzag
;Support Infill Layer Thickness:0.15
;Minimum Support Area:5
;Enable Support Roof:false
;Support Roof Thickness:0.8
;Support Roof Pattern:lines
;Connect Support Lines:0
;Connect Support ZigZags:1
;Minimum Support X/Y Distance:0.2
;Support Line Distance:1.33
; ---------PrintSpeed & Travel----------
;Enable Print Cool:true
;Avoid Printed Parts Traveling:true
;Enable Retraction:true
;Retraction Distance:8
;Retraction Speed:100
;Retraction Prime Speed:100
;Maximum Retraction Count:100
;Minimum Extrusion Distance Window:1
;Z Hop When Retracted:false
;Z Hop Height:0.2
;Retract Before Outer Wall:true
;Print Speed:50
;Infill Speed:50

;Prime Tower Speed:50
;Travel Speed:120
;Initial Layer Speed:25
;Skirt/Brim Speed:25
;Combing Mode:infill
; --------SpecialModel&Mesh Fixes--------
;Union Overlapping Volum:true
;Remove All Holes:false
;Maximum Travel Resolution:0.6
;Maximum Deviation:0.05
;Maximum Model Angle:0.872665
;IS Mold Print:false
;Make Overhang Printable:false
;Enable Coasting:false
;Coasting Volumes:0.06
;Coasting Speed:0.9
;Raft AirGap:0.25
;Layer0 ZOverLap:0.13
;---------------------End of Head--------------------------
M140 S60
M105
M104 S200
M105
M109 S200
M105
M190 S60
M82 ;absolute extrusion mode
M220 S100 ;Reset Feedrate
M221 S100 ;Reset Flowrate

G28 ;Home

G92 E0 ;Reset Extruder
G1 Z2.0 F3000 ;Move Z Axis up
G1 X10.1 Y20 Z0.28 F5000.0 ;Move to start position
G1 X10.1 Y145.0 Z0.28 F1500.0 E15 ;Draw the first line
G1 X10.4 Y145.0 Z0.28 F5000.0 ;Move to side a little
G1 X10.4 Y20 Z0.28 F1500.0 E30 ;Draw the second line
G92 E0  ;Reset Extruder
G1 E-1.0000 F1800 ;Retract a bit
G1 Z2.0 F3000 ;Move Z Axis up
G1 E0.0000 F1800 

G92 E0
G92 E0
G1 F6000 E-8

;LAYER_COUNT:266

;LAYER:0
M107
G0 F3600 X92.451 Y34.283 Z0.15
;TYPE:SKIRT
G1 F6000 E0
G1 F1500 X92.847 Y33.327 E0.02839
G1 X93.487 Y32.034 E0.06798
G1 X93.994 Y31.159 E0.09573
G1 X94.793 Y29.964 E0.13518
G1 X95.418 Y29.15 E0.16334
G1 X96.367 Y28.07 E0.20279
G1 X97.082 Y27.355 E0.23053
G1 X98.165 Y26.405 E0.27006
G1 X98.985 Y25.777 E0.2984
G1 X100.18 Y24.981 E0.3378
G1 X101.05 Y24.479 E0.36536
G1 X102.346 Y23.839 E0.40502
G1 X103.304 Y23.443 E0.43347
G1 X104.66 Y22.985 E0.47274
G1 X105.633 Y22.725 E0.50038
G1 X107.044 Y22.444 E0.53986
G1 X108.064 Y22.31 E0.56808
G1 X109.503 Y22.217 E0.60765
G1 X110.519 Y22.218 E0.63553
G1 X111.959 Y22.313 E0.67513
G1 X112.976 Y22.447 E0.70328
G1 X114.386 Y22.729 E0.74273
G1 X115.36 Y22.991 E0.77041
G1 X116.717 Y23.451 E0.80973
G1 X117.673 Y23.847 E0.83812
G1 X118.966 Y24.487 E0.87771
G1 X119.841 Y24.994 E0.90546
G1 X121.036 Y25.793 E0.9449
G1 X121.85 Y26.418 E0.97306
G1 X122.93 Y27.367 E1.01251
G1 X123.645 Y28.082 E1.04026
G1 X124.595 Y29.165 E1.07979
G1 X125.223 Y29.985 E1.10813
G1 X126.019 Y31.18 E1.14753
G1 X126.52 Y32.048 E1.17503
G1 X127.159 Y33.341 E1.2146
G1 X127.556 Y34.301 E1.24311
G1 X128.015 Y35.66 E1.28247
G1 X128.275 Y36.634 E1.31013
G1 X128.556 Y38.046 E1.34964
G1 X128.69 Y39.072 E1.37803
G1 X128.778 Y40.454 E1.41603
G1 X128.78 Y41.419 E1.44251
G1 X128.69 Y42.914 E1.4836
G1 X128.553 Y43.975 E1.51296
G1 X128.302 Y45.232 E1.54813
G1 X163.781 Y150.2 E4.58849
G1 X167.711 Y150.2 E4.69633
G1 X168.5 Y150.24 E4.718
G1 X169.28 Y150.359 E4.73965
G1 X170.045 Y150.557 E4.76134
G1 X170.785 Y150.831 E4.78299
G1 X171.494 Y151.179 E4.80466
G1 X172.165 Y151.597 E4.82635
G1 X172.789 Y152.08 E4.84801
G1 X174.515 Y153.774 E4.91437
G1 X175.045 Y154.36 E4.93605
G1 X175.512 Y154.996 E4.9577
G1 X175.913 Y155.676 E4.97936
G1 X176.243 Y156.394 E5.00104
G1 X176.498 Y157.141 E5.0227
G1 X176.677 Y157.91 E5.04437
G1 X176.777 Y158.694 E5.06605
G1 X176.8 Y159.289 E5.08239
G1 X176.799 Y187.5 E5.85649
G1 X176.759 Y188.289 E5.87817
G1 X176.685 Y188.873 E5.89432
G1 X176.742 Y189.661 E5.916
G1 X176.72 Y190.45 E5.93766
G1 X176.617 Y191.233 E5.95933
G1 X176.436 Y192.002 E5.98101
G1 X176.179 Y192.748 E6.00266
G1 X175.847 Y193.465 E6.02434
G1 X175.177 Y194.526 E6.05877
G1 X174.687 Y195.146 E6.08045
G1 X174.137 Y195.712 E6.10211
G1 X173.532 Y196.22 E6.12379
G1 X172.879 Y196.664 E6.14546
G1 X172.184 Y197.04 E6.16714
G1 X171.455 Y197.343 E6.1888
G1 X170.699 Y197.571 E6.21047
G1 X169.924 Y197.722 E6.23213
G1 X168.825 Y197.8 E6.26237
G1 X161.08 Y197.8 E6.47489
G1 X160.291 Y197.76 E6.49656
G1 X159.511 Y197.641 E6.51821
G1 X158.746 Y197.443 E6.5399
G1 X158.006 Y197.169 E6.56155
G1 X157.297 Y196.821 E6.58322
G1 X156.402 Y196.243 E6.61246
G1 X155.786 Y195.748 E6.63414
G1 X155.224 Y195.193 E6.65581
G1 X154.721 Y194.585 E6.67746
G1 X154.281 Y193.928 E6.69916
G1 X153.911 Y193.231 E6.72082
G1 X153.555 Y192.328 E6.74745
G1 X121.094 Y92.114 E9.63794
G1 X121.8 Y189.826 E12.31919
G1 X121.766 Y190.615 E12.34086
G1 X121.652 Y191.396 E12.36252
G1 X121.459 Y192.162 E12.3842
G1 X121.191 Y192.904 E12.40584
G1 X120.848 Y193.616 E12.42753
G1 X120.436 Y194.289 E12.44918
G1 X119.957 Y194.917 E12.47085
G1 X119.397 Y195.515 E12.49334
G1 X118.811 Y196.045 E12.51502
G1 X118.175 Y196.512 E12.53667
G1 X117.495 Y196.913 E12.55833
G1 X116.777 Y197.243 E12.58001
G1 X116.03 Y197.498 E12.60167
G1 X115.261 Y197.677 E12.62334
G1 X114.477 Y197.777 E12.64502
G1 X113.882 Y197.8 E12.66136
G1 X106.118 Y197.8 E12.8744
G1 X105.329 Y197.76 E12.89608
G1 X104.549 Y197.641 E12.91773
G1 X103.784 Y197.443 E12.93941
G1 X103.044 Y197.169 E12.96107
G1 X102.335 Y196.821 E12.98274
G1 X101.664 Y196.403 E13.00443
G1 X101.04 Y195.92 E13.02608
G1 X100.485 Y195.397 E13.04701
G1 X99.955 Y194.811 E13.06869
G1 X99.488 Y194.175 E13.09034
G1 X99.087 Y193.495 E13.112
G1 X98.757 Y192.777 E13.13368
G1 X98.502 Y192.03 E13.15534
G1 X98.323 Y191.261 E13.17701
G1 X98.223 Y190.477 E13.1987
G1 X98.2 Y189.826 E13.21657
G1 X98.906 Y92.115 E15.89779
G1 X66.445 Y192.328 E18.78826
G1 X66.164 Y193.066 E18.80993
G1 X65.81 Y193.771 E18.83158
G1 X65.386 Y194.438 E18.85326
G1 X64.897 Y195.058 E18.87493
G1 X64.348 Y195.625 E18.89659
G1 X63.493 Y196.319 E18.9268
G1 X62.831 Y196.749 E18.94846
G1 X62.129 Y197.109 E18.97011
G1 X61.393 Y197.397 E18.9918
G1 X60.633 Y197.61 E19.01346
G1 X59.855 Y197.744 E19.03512
G1 X58.92 Y197.8 E19.06082
G1 X51.175 Y197.8 E19.27334
G1 X50.386 Y197.76 E19.29502
G1 X49.606 Y197.641 E19.31667
G1 X48.841 Y197.443 E19.33835
G1 X48.101 Y197.169 E19.36
G1 X47.392 Y196.821 E19.38168
G1 X46.721 Y196.403 E19.40337
G1 X46.097 Y195.92 E19.42502
G1 X45.524 Y195.377 E19.44668
G1 X44.704 Y194.359 E19.48255
G1 X44.279 Y193.694 E19.50421
G1 X43.923 Y192.989 E19.52588
G1 X43.64 Y192.252 E19.54754
G1 X43.434 Y191.489 E19.56923
G1 X43.305 Y190.71 E19.59089
G1 X43.257 Y189.922 E19.61255
G1 X43.287 Y189.133 E19.63422
G1 X43.324 Y188.873 E19.64143
G1 X43.226 Y188.131 E19.66196
G1 X43.2 Y187.5 E19.67929
G1 X43.2 Y159.289 E20.45339
G1 X43.24 Y158.5 E20.47507
G1 X43.359 Y157.72 E20.49672
G1 X43.557 Y156.955 E20.5184
G1 X43.831 Y156.215 E20.54006
G1 X44.179 Y155.506 E20.56173
G1 X44.597 Y154.835 E20.58342
G1 X45.08 Y154.211 E20.60507
G1 X46.774 Y152.485 E20.67143
G1 X47.36 Y151.955 E20.69311
G1 X47.996 Y151.488 E20.71476
G1 X48.676 Y151.087 E20.73643
G1 X49.394 Y150.757 E20.75811
G1 X50.141 Y150.502 E20.77977
G1 X50.91 Y150.323 E20.80143
G1 X51.694 Y150.223 E20.82312
G1 X56.219 Y150.2 E20.94728
G1 X91.698 Y45.234 E23.98759
G1 X91.443 Y43.952 E24.02346
G1 X91.31 Y42.936 E24.05157
G1 X91.217 Y41.498 E24.09112
G1 X91.218 Y40.482 E24.11899
G1 X91.313 Y39.041 E24.15862
G1 X91.447 Y38.024 E24.18677
G1 X91.729 Y36.614 E24.22622
G1 X91.991 Y35.64 E24.2539
G1 X92.451 Y34.283 E24.29322
G0 F3600 X92.83 Y34.411
G1 F1500 X93.206 Y33.504 E24.32016
G1 X93.846 Y32.211 E24.35975
G1 X94.326 Y31.381 E24.38606
G1 X95.125 Y30.186 E24.4255
G1 X95.718 Y29.414 E24.45221
G1 X96.667 Y28.334 E24.49166
G1 X97.346 Y27.656 E24.51799
G1 X98.429 Y26.706 E24.55752
G1 X99.207 Y26.11 E24.58441
G1 X100.402 Y25.314 E24.62381
G1 X101.227 Y24.838 E24.64995
G1 X102.523 Y24.198 E24.68961
G1 X103.432 Y23.822 E24.7166
G1 X104.788 Y23.364 E24.75587
G1 X105.711 Y23.118 E24.78209
G1 X107.122 Y22.837 E24.82156
G1 X108.09 Y22.709 E24.84836
G1 X109.529 Y22.616 E24.88792
G1 X110.493 Y22.617 E24.91438
G1 X111.933 Y22.712 E24.95397
G1 X112.897 Y22.84 E24.98066
G1 X114.307 Y23.122 E25.02011
G1 X115.232 Y23.37 E25.04639
G1 X116.589 Y23.83 E25.08571
G1 X117.496 Y24.206 E25.11265
G1 X118.789 Y24.846 E25.15224
G1 X119.619 Y25.326 E25.17855
G1 X120.814 Y26.125 E25.21799
G1 X121.586 Y26.718 E25.2447
G1 X122.666 Y27.667 E25.28415
G1 X123.344 Y28.346 E25.31048
G1 X124.294 Y29.429 E25.35001
G1 X124.89 Y30.207 E25.37691
G1 X125.686 Y31.402 E25.4163
G1 X126.161 Y32.225 E25.44238
G1 X126.8 Y33.518 E25.48195
G1 X127.177 Y34.429 E25.50901
G1 X127.636 Y35.788 E25.54837
G1 X127.883 Y36.712 E25.57461
G1 X128.164 Y38.124 E25.61412
G1 X128.291 Y39.098 E25.64107
G1 X128.379 Y40.48 E25.67907
G1 X128.381 Y41.395 E25.70417
G1 X128.291 Y42.89 E25.74527
G1 X128.16 Y43.896 E25.77311
G1 X127.888 Y45.257 E25.81119
G1 X163.494 Y150.6 E28.86242
G1 X167.711 Y150.6 E28.97813
G1 X168.479 Y150.64 E28.99923
G1 X169.239 Y150.759 E29.02034
G1 X169.982 Y150.957 E29.04144
G1 X170.701 Y151.231 E29.06255
G1 X171.387 Y151.578 E29.08365
G1 X172.034 Y151.994 E29.10475
G1 X172.634 Y152.475 E29.12585
G1 X174.233 Y154.056 E29.18755
G1 X174.747 Y154.628 E29.20866
G1 X175.2 Y155.25 E29.22977
G1 X175.586 Y155.915 E29.25087
G1 X175.901 Y156.617 E29.27198
G1 X176.141 Y157.348 E29.29309
G1 X176.304 Y158.099 E29.31418
G1 X176.388 Y158.864 E29.3353
G1 X176.399 Y187.5 E30.12106
G1 X176.359 Y188.268 E30.14216
G1 X176.27 Y188.83 E30.15777
G1 X176.343 Y189.729 E30.18252
G1 X176.314 Y190.498 E30.20364
G1 X176.205 Y191.26 E30.22476
G1 X176.018 Y192.006 E30.24586
G1 X175.754 Y192.728 E30.26696
G1 X175.417 Y193.419 E30.28805
G1 X174.852 Y194.294 E30.31663
G1 X174.373 Y194.897 E30.33777
G1 X173.835 Y195.446 E30.35886
G1 X173.243 Y195.937 E30.37996
G1 X172.602 Y196.363 E30.40108
G1 X171.922 Y196.721 E30.42217
G1 X171.207 Y197.006 E30.44329
G1 X170.467 Y197.215 E30.46439
G1 X169.709 Y197.347 E30.4855
G1 X168.825 Y197.4 E30.5098
G1 X161.08 Y197.4 E30.72232
G1 X160.312 Y197.36 E30.74342
G1 X159.552 Y197.241 E30.76453
G1 X158.809 Y197.043 E30.78563
G1 X158.09 Y196.769 E30.80674
G1 X157.404 Y196.422 E30.82784
G1 X156.636 Y195.919 E30.85303
G1 X156.037 Y195.436 E30.87414
G1 X155.492 Y194.893 E30.89525
G1 X155.006 Y194.297 E30.91635
G1 X154.584 Y193.654 E30.93746
G1 X154.231 Y192.971 E30.95856
G1 X153.935 Y192.204 E30.98111
G1 X120.675 Y89.524 E33.94274
G1 X121.4 Y189.828 E36.69511
G1 X121.365 Y190.597 E36.71624
G1 X121.251 Y191.358 E36.73735
G1 X121.059 Y192.102 E36.75843
G1 X120.79 Y192.823 E36.77955
G1 X120.449 Y193.512 E36.80065
G1 X120.037 Y194.162 E36.82176
G1 X119.56 Y194.765 E36.84286
G1 X119.115 Y195.233 E36.86058
G1 X118.543 Y195.747 E36.88168
G1 X117.921 Y196.2 E36.90279
G1 X117.256 Y196.586 E36.92389
G1 X116.554 Y196.901 E36.94501
G1 X115.823 Y197.141 E36.96612
G1 X115.072 Y197.304 E36.98721
G1 X114.307 Y197.388 E37.00832
G1 X106.118 Y197.4 E37.23303
G1 X105.35 Y197.36 E37.25413
G1 X104.59 Y197.241 E37.27524
G1 X103.847 Y197.043 E37.29634
G1 X103.128 Y196.769 E37.31745
G1 X102.442 Y196.422 E37.33854
G1 X101.795 Y196.006 E37.35965
G1 X101.195 Y195.525 E37.38075
G1 X100.767 Y195.115 E37.39701
G1 X100.253 Y194.543 E37.41812
G1 X99.8 Y193.921 E37.43923
G1 X99.414 Y193.256 E37.46033
G1 X99.099 Y192.554 E37.48144
G1 X98.859 Y191.823 E37.50255
G1 X98.696 Y191.072 E37.52364
G1 X98.612 Y190.307 E37.54476
G1 X99.325 Y89.525 E40.31025
G1 X66.065 Y192.204 E43.27184
G1 X65.79 Y192.923 E43.29297
G1 X65.442 Y193.609 E43.31407
G1 X65.025 Y194.255 E43.33517
G1 X64.543 Y194.854 E43.35627
G1 X64.002 Y195.401 E43.37738
G1 X63.259 Y195.995 E43.40348
G1 X62.613 Y196.412 E43.42458
G1 X61.928 Y196.761 E43.44567
G1 X61.21 Y197.037 E43.46678
G1 X60.467 Y197.237 E43.48789
G1 X59.707 Y197.358 E43.50901
G1 X58.92 Y197.4 E43.53064
G1 X51.175 Y197.4 E43.74316
G1 X50.407 Y197.36 E43.76426
G1 X49.647 Y197.241 E43.78537
G1 X48.904 Y197.043 E43.80647
G1 X48.185 Y196.769 E43.82758
G1 X47.499 Y196.422 E43.84867
G1 X46.852 Y196.006 E43.86978
G1 X46.252 Y195.525 E43.89088
G1 X45.705 Y194.984 E43.91199
G1 X45.029 Y194.127 E43.94194
G1 X44.616 Y193.479 E43.96303
G1 X44.273 Y192.79 E43.98415
G1 X44.002 Y192.07 E44.00526
G1 X43.808 Y191.326 E44.02636
G1 X43.692 Y190.566 E44.04745
G1 X43.656 Y189.797 E44.06857
G1 X43.731 Y188.839 E44.09494
G1 X43.646 Y188.327 E44.10918
G1 X43.6 Y187.5 E44.13191
G1 X43.6 Y159.289 E44.90601
G1 X43.64 Y158.521 E44.92711
G1 X43.759 Y157.761 E44.94822
G1 X43.957 Y157.018 E44.96932
G1 X44.231 Y156.299 E44.99043
G1 X44.578 Y155.613 E45.01153
G1 X44.994 Y154.966 E45.03263
G1 X45.475 Y154.366 E45.05374
G1 X47.056 Y152.767 E45.11544
G1 X47.628 Y152.253 E45.13654
G1 X48.25 Y151.8 E45.15765
G1 X48.915 Y151.414 E45.17875
G1 X49.617 Y151.099 E45.19986
G1 X50.348 Y150.859 E45.22098
G1 X51.099 Y150.696 E45.24206
G1 X51.864 Y150.612 E45.26318
G1 X56.506 Y150.6 E45.39056
G1 X92.111 Y45.26 E48.44169
G1 X91.836 Y43.874 E48.48046
G1 X91.709 Y42.911 E48.50712
G1 X91.616 Y41.473 E48.54666
G1 X91.617 Y40.508 E48.57314
G1 X91.712 Y39.067 E48.61276
G1 X91.84 Y38.103 E48.63945
G1 X92.122 Y36.693 E48.6789
G1 X92.37 Y35.768 E48.70518
G1 X92.83 Y34.411 E48.7445
G0 F3600 X93.209 Y34.54
G1 F1500 X93.564 Y33.682 E48.76998
G1 X94.204 Y32.389 E48.80956
G1 X94.659 Y31.603 E48.83448
G1 X95.458 Y30.408 E48.87393
G1 X96.019 Y29.678 E48.89919
G1 X96.968 Y28.598 E48.93864
G1 X97.61 Y27.957 E48.96354
G1 X98.693 Y27.007 E49.00307
G1 X99.428 Y26.443 E49.02849
G1 X100.623 Y25.647 E49.06789
G1 X101.405 Y25.197 E49.09264
G1 X102.701 Y24.557 E49.13231
G1 X103.56 Y24.201 E49.15782
G1 X104.916 Y23.743 E49.19709
G1 X105.789 Y23.51 E49.22189
G1 X107.2 Y23.229 E49.26136
G1 X108.116 Y23.109 E49.28671
G1 X109.555 Y23.016 E49.32628
G1 X110.467 Y23.016 E49.35131
G1 X111.907 Y23.111 E49.39091
G1 X112.819 Y23.232 E49.41615
G1 X114.229 Y23.514 E49.45561
G1 X115.103 Y23.749 E49.48044
G1 X116.46 Y24.209 E49.51976
G1 X117.318 Y24.564 E49.54524
G1 X118.611 Y25.204 E49.58482
G1 X119.397 Y25.659 E49.60974
G1 X120.592 Y26.458 E49.64919
G1 X121.322 Y27.019 E49.67445
G1 X122.402 Y27.968 E49.7139
G1 X123.043 Y28.61 E49.73879
G1 X123.993 Y29.693 E49.77832
G1 X124.557 Y30.428 E49.80375
G1 X125.353 Y31.623 E49.84315
G1 X125.802 Y32.403 E49.86784
G1 X126.441 Y33.696 E49.90742
G1 X126.798 Y34.557 E49.93299
G1 X127.257 Y35.916 E49.97235
G1 X127.49 Y36.79 E49.99717
G1 X127.771 Y38.202 E50.03668
G1 X127.892 Y39.123 E50.06217
G1 X127.98 Y40.505 E50.10016
